(This GCode script was designed to adjust the Z height of a CNC machine according)
(to the minute variations in the surface height in order to achieve a better result in the milling/etching process)
(This script is the output of AutoLevellerAE, 0.7.0 Changeset: ...8eafc4 @ http://autoleveller.co.uk)
(Author: James Hawthorne PhD. File creation date: 28-09-2016 11:51)
(This program and any of its output is licensed under GPLv2 and as such...)
(AutoLevellerAE comes with ABSOLUTELY NO WARRANTY; for details, see sections 11 and 12 of the GPLv2 @ http://www.gnu.org/licenses/old-licenses/gpl-2.0.html)

(The following is a checklist which can be used before the probe routine starts)
(The checklist may not be entirely correct given your machine, therefore you should make your own adaptations as appropriate)
(1. Make sure wires/clips are attached and the probe is working correctly)
(Test probe connections within control software before starting)
(2. Home all axis)
(3. Load GCode file that contains the probe routine)
(4. Jog tool tip close to surface and touch off Z)
(5. Jog Z up a fraction to make sure surface is cleared)
(6. Jog to and touch off X and Y at the desired bottom left corner of the probe area)
(Note: The first probe will touch off Z to 0.0 when it first touches to the surface,)
(all other probe values are relative to this first point)

G90 G21 S20000 G17

(Initialize probe routine)
G0 Z25 (Move clear of the board first)
G1 X2.1394 Y-3.4337 F1000 (Move to bottom left corner)
G0 Z2 (Quick move to probe clearance height)
G38.2 Z-1 F100 (Probe to a maximum of the specified probe height at the specified feed rate)
G92 Z0 (Touch off Z to 0 once contact is made)
G0 Z2 (Move Z to above the contact point)
G38.2 Z-1 F50 (Repeat at a more accurate slower rate)
G92 Z0
G0 Z2

G0 Z2
G1 X2.1394 Y-3.4337 F1000
G38.2 Z-1 F100
#500=#5422
G0 Z2
G1 X10.0261 Y-3.4337 F1000
G38.2 Z-1 F100
#501=#5422
G0 Z2
G1 X17.9128 Y-3.4337 F1000
G38.2 Z-1 F100
#502=#5422
G0 Z2
G1 X25.7995 Y-3.4337 F1000
G38.2 Z-1 F100
#503=#5422
G0 Z2
G1 X33.6862 Y-3.4337 F1000
G38.2 Z-1 F100
#504=#5422
G0 Z2
G1 X33.6862 Y4.2498 F1000
G38.2 Z-1 F100
#509=#5422
G0 Z2
G1 X25.7995 Y4.2498 F1000
G38.2 Z-1 F100
#508=#5422
G0 Z2
G1 X17.9128 Y4.2498 F1000
G38.2 Z-1 F100
#507=#5422
G0 Z2
G1 X10.0261 Y4.2498 F1000
G38.2 Z-1 F100
#506=#5422
G0 Z2
G1 X2.1394 Y4.2498 F1000
G38.2 Z-1 F100
#505=#5422
G0 Z2
G1 X2.1394 Y11.9333 F1000
G38.2 Z-1 F100
#510=#5422
G0 Z2
G1 X10.0261 Y11.9333 F1000
G38.2 Z-1 F100
#511=#5422
G0 Z2
G1 X17.9128 Y11.9333 F1000
G38.2 Z-1 F100
#512=#5422
G0 Z2
G1 X25.7995 Y11.9333 F1000
G38.2 Z-1 F100
#513=#5422
G0 Z2
G1 X33.6862 Y11.9333 F1000
G38.2 Z-1 F100
#514=#5422
G0 Z2
G1 X33.6862 Y19.6168 F1000
G38.2 Z-1 F100
#519=#5422
G0 Z2
G1 X25.7995 Y19.6168 F1000
G38.2 Z-1 F100
#518=#5422
G0 Z2
G1 X17.9128 Y19.6168 F1000
G38.2 Z-1 F100
#517=#5422
G0 Z2
G1 X10.0261 Y19.6168 F1000
G38.2 Z-1 F100
#516=#5422
G0 Z2
G1 X2.1394 Y19.6168 F1000
G38.2 Z-1 F100
#515=#5422
G0 Z2
G1 X2.1394 Y27.3003 F1000
G38.2 Z-1 F100
#520=#5422
G0 Z2
G1 X10.0261 Y27.3003 F1000
G38.2 Z-1 F100
#521=#5422
G0 Z2
G1 X17.9128 Y27.3003 F1000
G38.2 Z-1 F100
#522=#5422
G0 Z2
G1 X25.7995 Y27.3003 F1000
G38.2 Z-1 F100
#523=#5422
G0 Z2
G1 X33.6862 Y27.3003 F1000
G38.2 Z-1 F100
#524=#5422
G0 Z2.00000
M0


G21
G90
G94
F150.00
G00 Z1.0000
M03
G4 P1
G00 X2.2602Y1.9005
#102=[#505+0.30576*#500-0.30576*#505]
#101=[#506+0.30576*#501-0.30576*#506]
#100=[#102+0.01532*#101-0.01532*#102]
G01 Z[#100+-0.0800]
#102=[#505+0.30576*#500-0.30576*#505]
#101=[#506+0.30576*#501-0.30576*#506]
#100=[#102+0.45175*#101-0.45175*#102]
G01 X5.7022Y1.9005Z[#100+-0.0800]
#102=[#505+0.30558*#500-0.30558*#505]
#101=[#506+0.30558*#501-0.30558*#506]
#100=[#102+0.45346*#101-0.45346*#102]
G01 X5.7157Y1.9019Z[#100+-0.0800]
#102=[#505+0.30520*#500-0.30520*#505]
#101=[#506+0.30520*#501-0.30520*#506]
#100=[#102+0.45515*#101-0.45515*#102]
G01 X5.7290Y1.9048Z[#100+-0.0800]
#102=[#505+0.30191*#500-0.30191*#505]
#101=[#506+0.30191*#501-0.30191*#506]
#100=[#102+0.46485*#101-0.46485*#102]
G01 X5.8055Y1.9301Z[#100+-0.0800]
#102=[#505+0.28915*#500-0.28915*#505]
#101=[#506+0.28915*#501-0.28915*#506]
#100=[#102+0.52072*#101-0.52072*#102]
G01 X6.2462Y2.0281Z[#100+-0.0800]
#102=[#505+0.28598*#500-0.28598*#505]
#101=[#506+0.28598*#501-0.28598*#506]
#100=[#102+0.57646*#101-0.57646*#102]
G01 X6.6858Y2.0525Z[#100+-0.0800]
#102=[#505+0.28915*#500-0.28915*#505]
#101=[#506+0.28915*#501-0.28915*#506]
#100=[#102+0.62901*#101-0.62901*#102]
G01 X7.1002Y2.0281Z[#100+-0.0800]
#102=[#505+0.30191*#500-0.30191*#505]
#101=[#506+0.30191*#501-0.30191*#506]
#100=[#102+0.68491*#101-0.68491*#102]
G01 X7.5411Y1.9301Z[#100+-0.0800]
#102=[#505+0.30520*#500-0.30520*#505]
#101=[#506+0.30520*#501-0.30520*#506]
#100=[#102+0.69461*#101-0.69461*#102]
G01 X7.6176Y1.9048Z[#100+-0.0800]
#102=[#505+0.30558*#500-0.30558*#505]
#101=[#506+0.30558*#501-0.30558*#506]
#100=[#102+0.69630*#101-0.69630*#102]
G01 X7.6309Y1.9019Z[#100+-0.0800]
#102=[#505+0.30576*#500-0.30576*#505]
#101=[#506+0.30576*#501-0.30576*#506]
#100=[#102+0.69801*#101-0.69801*#102]
G01 X7.6444Y1.9005Z[#100+-0.0800]
#102=[#505+0.30579*#500-0.30579*#505]
#101=[#506+0.30579*#501-0.30579*#506]
#100=[#102+0.76628*#101-0.76628*#102]
G01 X8.1828Y1.9003Z[#100+-0.0800]
#102=[#506+0.76593*#501-0.76593*#506]
#101=[#507+0.76593*#502-0.76593*#507]
#100=[#102+0.21457*#101-0.21457*#102]
G01 X11.71833Y-1.63523Z[#100+-0.0800] ;segmented line. Max segment length set to 5
#102=[#506+0.99516*#501-0.99516*#506]
#101=[#507+0.99516*#502-0.99516*#507]
#100=[#102+0.43789*#101-0.43789*#102]
G01 X13.4796Y-3.3965Z[#100+-0.0800]
#102=[#506+0.99675*#501-0.99675*#506]
#101=[#507+0.99675*#502-0.99675*#507]
#100=[#102+0.43968*#101-0.43968*#102]
G01 X13.4937Y-3.4087Z[#100+-0.0800]
#102=[#506+0.99764*#501-0.99764*#506]
#101=[#507+0.99764*#502-0.99764*#507]
#100=[#102+0.44100*#101-0.44100*#102]
G01 X13.5041Y-3.4156Z[#100+-0.0800]
#102=[#506+0.99841*#501-0.99841*#506]
#101=[#507+0.99841*#502-0.99841*#507]
#100=[#102+0.44239*#101-0.44239*#102]
G01 X13.5151Y-3.4215Z[#100+-0.0800]
#102=[#506+0.99904*#501-0.99904*#506]
#101=[#507+0.99904*#502-0.99904*#507]
#100=[#102+0.44385*#101-0.44385*#102]
G01 X13.5266Y-3.4263Z[#100+-0.0800]
#102=[#506+0.99951*#501-0.99951*#506]
#101=[#507+0.99951*#502-0.99951*#507]
#100=[#102+0.44536*#101-0.44536*#102]
G01 X13.5385Y-3.4299Z[#100+-0.0800]
#102=[#506+0.99982*#501-0.99982*#506]
#101=[#507+0.99982*#502-0.99982*#507]
#100=[#102+0.44692*#101-0.44692*#102]
G01 X13.5508Y-3.4323Z[#100+-0.0800]
#102=[#501+0*#501-0*#501]
#101=[#502+0*#502-0*#502]
#100=[#102+0.44928*#101-0.44928*#102]
G01 X13.5694Y-3.4337Z[#100+-0.0800]
#102=[#502+0*#502-0*#502]
#101=[#503+0*#503-0*#503]
#100=[#102+0.08325*#101-0.08325*#102]
G01 X18.56940Y-3.43370Z[#100+-0.0800] ;segmented line. Max segment length set to 5
#102=[#502+0*#502-0*#502]
#101=[#503+0*#503-0*#503]
#100=[#102+0.71723*#101-0.71723*#102]
G01 X23.56940Y-3.43370Z[#100+-0.0800] ;segmented line. Max segment length set to 5
#102=[#503+0*#503-0*#503]
#101=[#504+0*#504-0*#504]
#100=[#102+0.35121*#101-0.35121*#102]
G01 X28.56940Y-3.43370Z[#100+-0.0800] ;segmented line. Max segment length set to 5
#102=[#503+0*#503-0*#503]
#101=[#504+0*#504-0*#504]
#100=[#102+0.97746*#101-0.97746*#102]
G01 X33.5084Y-3.4337Z[#100+-0.0800]
#102=[#508+0.99982*#503-0.99982*#508]
#101=[#509+0.99982*#504-0.99982*#509]
#100=[#102+0.97981*#101-0.97981*#102]
G01 X33.5270Y-3.4323Z[#100+-0.0800]
#102=[#508+0.99951*#503-0.99951*#508]
#101=[#509+0.99951*#504-0.99951*#509]
#100=[#102+0.98137*#101-0.98137*#102]
G01 X33.5393Y-3.4299Z[#100+-0.0800]
#102=[#508+0.99904*#503-0.99904*#508]
#101=[#509+0.99904*#504-0.99904*#509]
#100=[#102+0.98288*#101-0.98288*#102]
G01 X33.5512Y-3.4263Z[#100+-0.0800]
#102=[#508+0.99841*#503-0.99841*#508]
#101=[#509+0.99841*#504-0.99841*#509]
#100=[#102+0.98434*#101-0.98434*#102]
G01 X33.5627Y-3.4215Z[#100+-0.0800]
#102=[#508+0.99764*#503-0.99764*#508]
#101=[#509+0.99764*#504-0.99764*#509]
#100=[#102+0.98574*#101-0.98574*#102]
G01 X33.5737Y-3.4156Z[#100+-0.0800]
#102=[#508+0.99675*#503-0.99675*#508]
#101=[#509+0.99675*#504-0.99675*#509]
#100=[#102+0.98705*#101-0.98705*#102]
G01 X33.5841Y-3.4087Z[#100+-0.0800]
#102=[#508+0.99572*#503-0.99572*#508]
#101=[#509+0.99572*#504-0.99572*#509]
#100=[#102+0.98827*#101-0.98827*#102]
G01 X33.5937Y-3.4008Z[#100+-0.0800]
#102=[#508+0.99457*#503-0.99457*#508]
#101=[#509+0.99457*#504-0.99457*#509]
#100=[#102+0.98939*#101-0.98939*#102]
G01 X33.6025Y-3.3920Z[#100+-0.0800]
#102=[#508+0.99332*#503-0.99332*#508]
#101=[#509+0.99332*#504-0.99332*#509]
#100=[#102+0.99039*#101-0.99039*#102]
G01 X33.6104Y-3.3824Z[#100+-0.0800]
#102=[#508+0.99197*#503-0.99197*#508]
#101=[#509+0.99197*#504-0.99197*#509]
#100=[#102+0.99126*#101-0.99126*#102]
G01 X33.6173Y-3.3720Z[#100+-0.0800]
#102=[#508+0.99054*#503-0.99054*#508]
#101=[#509+0.99054*#504-0.99054*#509]
#100=[#102+0.99201*#101-0.99201*#102]
G01 X33.6232Y-3.3610Z[#100+-0.0800]
#102=[#508+0.98904*#503-0.98904*#508]
#101=[#509+0.98904*#504-0.98904*#509]
#100=[#102+0.99262*#101-0.99262*#102]
G01 X33.6280Y-3.3495Z[#100+-0.0800]
#102=[#508+0.98749*#503-0.98749*#508]
#101=[#509+0.98749*#504-0.98749*#509]
#100=[#102+0.99308*#101-0.99308*#102]
G01 X33.6316Y-3.3376Z[#100+-0.0800]
#102=[#508+0.98589*#503-0.98589*#508]
#101=[#509+0.98589*#504-0.98589*#509]
#100=[#102+0.99338*#101-0.99338*#102]
G01 X33.6340Y-3.3253Z[#100+-0.0800]
#102=[#508+0.98347*#503-0.98347*#508]
#101=[#509+0.98347*#504-0.98347*#509]
#100=[#102+0.99356*#101-0.99356*#102]
G01 X33.6354Y-3.3067Z[#100+-0.0800]
#102=[#508+0.33273*#503-0.33273*#508]
#101=[#509+0.33273*#504-0.33273*#509]
#100=[#102+0.99356*#101-0.99356*#102]
G01 X33.63540Y1.69330Z[#100+-0.0800] ;segmented line. Max segment length set to 5
#102=[#508+0.04132*#503-0.04132*#508]
#101=[#509+0.04132*#504-0.04132*#509]
#100=[#102+0.99356*#101-0.99356*#102]
G01 X33.6354Y3.9323Z[#100+-0.0800]
#102=[#508+0.03904*#503-0.03904*#508]
#101=[#509+0.03904*#504-0.03904*#509]
#100=[#102+0.99341*#101-0.99341*#102]
G01 X33.6342Y3.9498Z[#100+-0.0800]
#102=[#508+0.03756*#503-0.03756*#508]
#101=[#509+0.03756*#504-0.03756*#509]
#100=[#102+0.99314*#101-0.99314*#102]
G01 X33.6321Y3.9612Z[#100+-0.0800]
#102=[#508+0.03609*#503-0.03609*#508]
#101=[#509+0.03609*#504-0.03609*#509]
#100=[#102+0.99273*#101-0.99273*#102]
G01 X33.6289Y3.9725Z[#100+-0.0800]
#102=[#508+0.03467*#503-0.03467*#508]
#101=[#509+0.03467*#504-0.03467*#509]
#100=[#102+0.99220*#101-0.99220*#102]
G01 X33.6247Y3.9834Z[#100+-0.0800]
#102=[#508+0.03332*#503-0.03332*#508]
#101=[#509+0.03332*#504-0.03332*#509]
#100=[#102+0.99154*#101-0.99154*#102]
G01 X33.6195Y3.9938Z[#100+-0.0800]
#102=[#508+0.03140*#503-0.03140*#508]
#101=[#509+0.03140*#504-0.03140*#509]
#100=[#102+0.99034*#101-0.99034*#102]
G01 X33.6100Y4.0085Z[#100+-0.0800]
#102=[#508+0.01818*#503-0.01818*#508]
#101=[#509+0.01818*#504-0.01818*#509]
#100=[#102+0.98068*#101-0.98068*#102]
G01 X33.5338Y4.1101Z[#100+-0.0800]
#102=[#508+0.01627*#503-0.01627*#508]
#101=[#509+0.01627*#504-0.01627*#509]
#100=[#102+0.97904*#101-0.97904*#102]
G01 X33.5209Y4.1248Z[#100+-0.0800]
#102=[#508+0.01514*#503-0.01514*#508]
#101=[#509+0.01514*#504-0.01514*#509]
#100=[#102+0.97779*#101-0.97779*#102]
G01 X33.5110Y4.1335Z[#100+-0.0800]
#102=[#508+0.01416*#503-0.01416*#508]
#101=[#509+0.01416*#504-0.01416*#509]
#100=[#102+0.97644*#101-0.97644*#102]
G01 X33.5004Y4.1410Z[#100+-0.0800]
#102=[#508+0.01331*#503-0.01331*#508]
#101=[#509+0.01331*#504-0.01331*#509]
#100=[#102+0.97500*#101-0.97500*#102]
G01 X33.4890Y4.1475Z[#100+-0.0800]
#102=[#508+0.01264*#503-0.01264*#508]
#101=[#509+0.01264*#504-0.01264*#509]
#100=[#102+0.97347*#101-0.97347*#102]
G01 X33.4770Y4.1527Z[#100+-0.0800]
#102=[#508+0.01212*#503-0.01212*#508]
#101=[#509+0.01212*#504-0.01212*#509]
#100=[#102+0.97190*#101-0.97190*#102]
G01 X33.4646Y4.1567Z[#100+-0.0800]
#102=[#508+0.01177*#503-0.01177*#508]
#101=[#509+0.01177*#504-0.01177*#509]
#100=[#102+0.97027*#101-0.97027*#102]
G01 X33.4517Y4.1594Z[#100+-0.0800]
#102=[#508+0.01157*#503-0.01157*#508]
#101=[#509+0.01157*#504-0.01157*#509]
#100=[#102+0.96779*#101-0.96779*#102]
G01 X33.4322Y4.1609Z[#100+-0.0800]
#102=[#508+0.01157*#503-0.01157*#508]
#101=[#509+0.01157*#504-0.01157*#509]
#100=[#102+0.33382*#101-0.33382*#102]
G01 X28.43220Y4.16090Z[#100+-0.0800] ;segmented line. Max segment length set to 5
#102=[#507+0.01157*#502-0.01157*#507]
#101=[#508+0.01157*#503-0.01157*#508]
#100=[#102+0.69984*#101-0.69984*#102]
G01 X23.43220Y4.16090Z[#100+-0.0800] ;segmented line. Max segment length set to 5
#102=[#507+0.01157*#502-0.01157*#507]
#101=[#508+0.01157*#503-0.01157*#508]
#100=[#102+0.06586*#101-0.06586*#102]
G01 X18.43220Y4.16090Z[#100+-0.0800] ;segmented line. Max segment length set to 5
#102=[#506+0.01157*#501-0.01157*#506]
#101=[#507+0.01157*#502-0.01157*#507]
#100=[#102+0.43188*#101-0.43188*#102]
G01 X13.43220Y4.16090Z[#100+-0.0800] ;segmented line. Max segment length set to 5
#102=[#505+0.01157*#500-0.01157*#505]
#101=[#506+0.01157*#501-0.01157*#506]
#100=[#102+0.79790*#101-0.79790*#102]
G01 X8.43220Y4.16090Z[#100+-0.0800] ;segmented line. Max segment length set to 5
#102=[#505+0.01157*#500-0.01157*#505]
#101=[#506+0.01157*#501-0.01157*#506]
#100=[#102+0.62034*#101-0.62034*#102]
G01 X7.0318Y4.1609Z[#100+-0.0800]
#102=[#505+0.00600*#500-0.00600*#505]
#101=[#506+0.00600*#501-0.00600*#506]
#100=[#102+0.59865*#101-0.59865*#102]
G01 X6.8608Y4.2037Z[#100+-0.0800]
#102=[#510+0.99615*#505-0.99615*#510]
#101=[#511+0.99615*#506-0.99615*#511]
#100=[#102+0.58185*#101-0.58185*#102]
G01 X6.7283Y4.2794Z[#100+-0.0800]
#102=[#510+0.97979*#505-0.97979*#510]
#101=[#511+0.97979*#506-0.97979*#511]
#100=[#102+0.57275*#101-0.57275*#102]
G01 X6.6565Y4.4051Z[#100+-0.0800]
#102=[#510+0.95765*#505-0.95765*#510]
#101=[#511+0.95765*#506-0.95765*#511]
#100=[#102+0.57005*#101-0.57005*#102]
G01 X6.6352Y4.5752Z[#100+-0.0800]
#102=[#510+0.30690*#505-0.30690*#510]
#101=[#511+0.30690*#506-0.30690*#511]
#100=[#102+0.57005*#101-0.57005*#102]
G01 X6.63520Y9.57520Z[#100+-0.0800] ;segmented line. Max segment length set to 5
#102=[#510+0.16646*#505-0.16646*#510]
#101=[#511+0.16646*#506-0.16646*#511]
#100=[#102+0.57005*#101-0.57005*#102]
G01 X6.6352Y10.6543Z[#100+-0.0800]
#102=[#510+0.14762*#505-0.14762*#510]
#101=[#511+0.14762*#506-0.14762*#511]
#100=[#102+0.57267*#101-0.57267*#102]
G01 X6.6559Y10.7991Z[#100+-0.0800]
#102=[#510+0.13269*#505-0.13269*#510]
#101=[#511+0.13269*#506-0.13269*#511]
#100=[#102+0.58098*#101-0.58098*#102]
G01 X6.7214Y10.9138Z[#100+-0.0800]
#102=[#510+0.13111*#505-0.13111*#510]
#101=[#511+0.13111*#506-0.13111*#511]
#100=[#102+0.58553*#101-0.58553*#102]
G01 X6.7573Y10.9259Z[#100+-0.0800]
#102=[#510+0.13047*#505-0.13047*#510]
#101=[#511+0.13047*#506-0.13047*#511]
#100=[#102+0.58694*#101-0.58694*#102]
G01 X6.7684Y10.9308Z[#100+-0.0800]
#102=[#510+0.12969*#505-0.12969*#510]
#101=[#511+0.12969*#506-0.12969*#511]
#100=[#102+0.58829*#101-0.58829*#102]
G01 X6.7791Y10.9368Z[#100+-0.0800]
#102=[#510+0.12878*#505-0.12878*#510]
#101=[#511+0.12878*#506-0.12878*#511]
#100=[#102+0.58956*#101-0.58956*#102]
G01 X6.7891Y10.9438Z[#100+-0.0800]
#102=[#510+0.12775*#505-0.12775*#510]
#101=[#511+0.12775*#506-0.12775*#511]
#100=[#102+0.59073*#101-0.59073*#102]
G01 X6.7983Y10.9517Z[#100+-0.0800]
#102=[#510+0.12661*#505-0.12661*#510]
#101=[#511+0.12661*#506-0.12661*#511]
#100=[#102+0.59181*#101-0.59181*#102]
G01 X6.8068Y10.9605Z[#100+-0.0800]
#102=[#510+0.12537*#505-0.12537*#510]
#101=[#511+0.12537*#506-0.12537*#511]
#100=[#102+0.59277*#101-0.59277*#102]
G01 X6.8144Y10.9700Z[#100+-0.0800]
#102=[#510+0.12403*#505-0.12403*#510]
#101=[#511+0.12403*#506-0.12403*#511]
#100=[#102+0.59362*#101-0.59362*#102]
G01 X6.8211Y10.9803Z[#100+-0.0800]
#102=[#510+0.12263*#505-0.12263*#510]
#101=[#511+0.12263*#506-0.12263*#511]
#100=[#102+0.59433*#101-0.59433*#102]
G01 X6.8267Y10.9911Z[#100+-0.0800]
#102=[#510+0.12116*#505-0.12116*#510]
#101=[#511+0.12116*#506-0.12116*#511]
#100=[#102+0.59491*#101-0.59491*#102]
G01 X6.8313Y11.0024Z[#100+-0.0800]
#102=[#510+0.11963*#505-0.11963*#510]
#101=[#511+0.11963*#506-0.11963*#511]
#100=[#102+0.59536*#101-0.59536*#102]
G01 X6.8348Y11.0141Z[#100+-0.0800]
#102=[#510+0.11807*#505-0.11807*#510]
#101=[#511+0.11807*#506-0.11807*#511]
#100=[#102+0.59565*#101-0.59565*#102]
G01 X6.8371Y11.0261Z[#100+-0.0800]
#102=[#510+0.11570*#505-0.11570*#510]
#101=[#511+0.11570*#506-0.11570*#511]
#100=[#102+0.59581*#101-0.59581*#102]
G01 X6.8384Y11.0443Z[#100+-0.0800]
#102=[#510+0.04959*#505-0.04959*#510]
#101=[#511+0.04959*#506-0.04959*#511]
#100=[#102+0.59581*#101-0.59581*#102]
G01 X6.8384Y11.5523Z[#100+-0.0800]
#102=[#510+0.04717*#505-0.04717*#510]
#101=[#511+0.04717*#506-0.04717*#511]
#100=[#102+0.59564*#101-0.59564*#102]
G01 X6.8370Y11.5709Z[#100+-0.0800]
#102=[#510+0.04557*#505-0.04557*#510]
#101=[#511+0.04557*#506-0.04557*#511]
#100=[#102+0.59533*#101-0.59533*#102]
G01 X6.8346Y11.5832Z[#100+-0.0800]
#102=[#510+0.04402*#505-0.04402*#510]
#101=[#511+0.04402*#506-0.04402*#511]
#100=[#102+0.59487*#101-0.59487*#102]
G01 X6.8310Y11.5951Z[#100+-0.0800]
#102=[#510+0.04252*#505-0.04252*#510]
#101=[#511+0.04252*#506-0.04252*#511]
#100=[#102+0.59427*#101-0.59427*#102]
G01 X6.8262Y11.6066Z[#100+-0.0800]
#102=[#510+0.04109*#505-0.04109*#510]
#101=[#511+0.04109*#506-0.04109*#511]
#100=[#102+0.59352*#101-0.59352*#102]
G01 X6.8203Y11.6176Z[#100+-0.0800]
#102=[#510+0.03973*#505-0.03973*#510]
#101=[#511+0.03973*#506-0.03973*#511]
#100=[#102+0.59264*#101-0.59264*#102]
G01 X6.8134Y11.6280Z[#100+-0.0800]
#102=[#510+0.03849*#505-0.03849*#510]
#101=[#511+0.03849*#506-0.03849*#511]
#100=[#102+0.59164*#101-0.59164*#102]
G01 X6.8055Y11.6376Z[#100+-0.0800]
#102=[#510+0.03734*#505-0.03734*#510]
#101=[#511+0.03734*#506-0.03734*#511]
#100=[#102+0.59053*#101-0.59053*#102]
G01 X6.7967Y11.6464Z[#100+-0.0800]
#102=[#510+0.03631*#505-0.03631*#510]
#101=[#511+0.03631*#506-0.03631*#511]
#100=[#102+0.58931*#101-0.58931*#102]
G01 X6.7871Y11.6543Z[#100+-0.0800]
#102=[#510+0.03541*#505-0.03541*#510]
#101=[#511+0.03541*#506-0.03541*#511]
#100=[#102+0.58799*#101-0.58799*#102]
G01 X6.7767Y11.6612Z[#100+-0.0800]
#102=[#510+0.03465*#505-0.03465*#510]
#101=[#511+0.03465*#506-0.03465*#511]
#100=[#102+0.58660*#101-0.58660*#102]
G01 X6.7657Y11.6671Z[#100+-0.0800]
#102=[#510+0.03402*#505-0.03402*#510]
#101=[#511+0.03402*#506-0.03402*#511]
#100=[#102+0.58514*#101-0.58514*#102]
G01 X6.7542Y11.6719Z[#100+-0.0800]
#102=[#510+0.03355*#505-0.03355*#510]
#101=[#511+0.03355*#506-0.03355*#511]
#100=[#102+0.58363*#101-0.58363*#102]
G01 X6.7423Y11.6755Z[#100+-0.0800]
#102=[#510+0.03324*#505-0.03324*#510]
#101=[#511+0.03324*#506-0.03324*#511]
#100=[#102+0.58207*#101-0.58207*#102]
G01 X6.7300Y11.6779Z[#100+-0.0800]
#102=[#510+0.03306*#505-0.03306*#510]
#101=[#511+0.03306*#506-0.03306*#511]
#100=[#102+0.57971*#101-0.57971*#102]
G01 X6.7114Y11.6793Z[#100+-0.0800]
#102=[#510+0.03306*#505-0.03306*#510]
#101=[#511+0.03306*#506-0.03306*#511]
#100=[#102+0.01610*#101-0.01610*#102]
G01 X2.2664Y11.6793Z[#100+-0.0800]
#102=[#510+0.03324*#505-0.03324*#510]
#101=[#511+0.03324*#506-0.03324*#511]
#100=[#102+0.01374*#101-0.01374*#102]
G01 X2.2478Y11.6779Z[#100+-0.0800]
#102=[#510+0.03355*#505-0.03355*#510]
#101=[#511+0.03355*#506-0.03355*#511]
#100=[#102+0.01219*#101-0.01219*#102]
G01 X2.2355Y11.6755Z[#100+-0.0800]
#102=[#510+0.03402*#505-0.03402*#510]
#101=[#511+0.03402*#506-0.03402*#511]
#100=[#102+0.01068*#101-0.01068*#102]
G01 X2.2236Y11.6719Z[#100+-0.0800]
#102=[#510+0.03465*#505-0.03465*#510]
#101=[#511+0.03465*#506-0.03465*#511]
#100=[#102+0.00922*#101-0.00922*#102]
G01 X2.2121Y11.6671Z[#100+-0.0800]
#102=[#510+0.03541*#505-0.03541*#510]
#101=[#511+0.03541*#506-0.03541*#511]
#100=[#102+0.00782*#101-0.00782*#102]
G01 X2.2011Y11.6612Z[#100+-0.0800]
#102=[#510+0.03631*#505-0.03631*#510]
#101=[#511+0.03631*#506-0.03631*#511]
#100=[#102+0.00650*#101-0.00650*#102]
G01 X2.1907Y11.6543Z[#100+-0.0800]
#102=[#510+0.03734*#505-0.03734*#510]
#101=[#511+0.03734*#506-0.03734*#511]
#100=[#102+0.00529*#101-0.00529*#102]
G01 X2.1811Y11.6464Z[#100+-0.0800]
#102=[#510+0.03849*#505-0.03849*#510]
#101=[#511+0.03849*#506-0.03849*#511]
#100=[#102+0.00417*#101-0.00417*#102]
G01 X2.1723Y11.6376Z[#100+-0.0800]
#102=[#510+0.03973*#505-0.03973*#510]
#101=[#511+0.03973*#506-0.03973*#511]
#100=[#102+0.00317*#101-0.00317*#102]
G01 X2.1644Y11.6280Z[#100+-0.0800]
#102=[#510+0.04109*#505-0.04109*#510]
#101=[#511+0.04109*#506-0.04109*#511]
#100=[#102+0.00230*#101-0.00230*#102]
G01 X2.1575Y11.6176Z[#100+-0.0800]
#102=[#510+0.04252*#505-0.04252*#510]
#101=[#511+0.04252*#506-0.04252*#511]
#100=[#102+0.00155*#101-0.00155*#102]
G01 X2.1516Y11.6066Z[#100+-0.0800]
#102=[#510+0.04402*#505-0.04402*#510]
#101=[#511+0.04402*#506-0.04402*#511]
#100=[#102+0.00094*#101-0.00094*#102]
G01 X2.1468Y11.5951Z[#100+-0.0800]
#102=[#510+0.04557*#505-0.04557*#510]
#101=[#511+0.04557*#506-0.04557*#511]
#100=[#102+0.00048*#101-0.00048*#102]
G01 X2.1432Y11.5832Z[#100+-0.0800]
#102=[#510+0.04717*#505-0.04717*#510]
#101=[#511+0.04717*#506-0.04717*#511]
#100=[#102+0.00018*#101-0.00018*#102]
G01 X2.1408Y11.5709Z[#100+-0.0800]
#102=[#510+0.04959*#505-0.04959*#510]
#101=[#510+0.04959*#505-0.04959*#510]
#100=[#102+0*#101-0*#102]
G01 X2.1394Y11.5523Z[#100+-0.0800]
#102=[#510+0.70033*#505-0.70033*#510]
#101=[#510+0.70033*#505-0.70033*#510]
#100=[#102+0*#101-0*#102]
G01 X2.13940Y6.55230Z[#100+-0.0800] ;segmented line. Max segment length set to 5
#102=[#505+0.28926*#500-0.28926*#505]
#101=[#505+0.28926*#500-0.28926*#505]
#100=[#102+0*#101-0*#102]
G01 X2.1394Y2.0273Z[#100+-0.0800]
#102=[#505+0.29168*#500-0.29168*#505]
#101=[#506+0.29168*#501-0.29168*#506]
#100=[#102+0.00018*#101-0.00018*#102]
G01 X2.1408Y2.0087Z[#100+-0.0800]
#102=[#505+0.29328*#500-0.29328*#505]
#101=[#506+0.29328*#501-0.29328*#506]
#100=[#102+0.00048*#101-0.00048*#102]
G01 X2.1432Y1.9964Z[#100+-0.0800]
#102=[#505+0.29483*#500-0.29483*#505]
#101=[#506+0.29483*#501-0.29483*#506]
#100=[#102+0.00094*#101-0.00094*#102]
G01 X2.1468Y1.9845Z[#100+-0.0800]
#102=[#505+0.29632*#500-0.29632*#505]
#101=[#506+0.29632*#501-0.29632*#506]
#100=[#102+0.00155*#101-0.00155*#102]
G01 X2.1516Y1.9730Z[#100+-0.0800]
#102=[#505+0.29775*#500-0.29775*#505]
#101=[#506+0.29775*#501-0.29775*#506]
#100=[#102+0.00230*#101-0.00230*#102]
G01 X2.1575Y1.9620Z[#100+-0.0800]
#102=[#505+0.29911*#500-0.29911*#505]
#101=[#506+0.29911*#501-0.29911*#506]
#100=[#102+0.00317*#101-0.00317*#102]
G01 X2.1644Y1.9516Z[#100+-0.0800]
#102=[#505+0.30036*#500-0.30036*#505]
#101=[#506+0.30036*#501-0.30036*#506]
#100=[#102+0.00417*#101-0.00417*#102]
G01 X2.1723Y1.9420Z[#100+-0.0800]
#102=[#505+0.30150*#500-0.30150*#505]
#101=[#506+0.30150*#501-0.30150*#506]
#100=[#102+0.00529*#101-0.00529*#102]
G01 X2.1811Y1.9332Z[#100+-0.0800]
#102=[#505+0.30253*#500-0.30253*#505]
#101=[#506+0.30253*#501-0.30253*#506]
#100=[#102+0.00650*#101-0.00650*#102]
G01 X2.1907Y1.9253Z[#100+-0.0800]
#102=[#505+0.30343*#500-0.30343*#505]
#101=[#506+0.30343*#501-0.30343*#506]
#100=[#102+0.00782*#101-0.00782*#102]
G01 X2.2011Y1.9184Z[#100+-0.0800]
#102=[#505+0.30420*#500-0.30420*#505]
#101=[#506+0.30420*#501-0.30420*#506]
#100=[#102+0.00922*#101-0.00922*#102]
G01 X2.2121Y1.9125Z[#100+-0.0800]
#102=[#505+0.30482*#500-0.30482*#505]
#101=[#506+0.30482*#501-0.30482*#506]
#100=[#102+0.01068*#101-0.01068*#102]
G01 X2.2236Y1.9077Z[#100+-0.0800]
#102=[#505+0.30529*#500-0.30529*#505]
#101=[#506+0.30529*#501-0.30529*#506]
#100=[#102+0.01219*#101-0.01219*#102]
G01 X2.2355Y1.9041Z[#100+-0.0800]
#102=[#505+0.30560*#500-0.30560*#505]
#101=[#506+0.30560*#501-0.30560*#506]
#100=[#102+0.01374*#101-0.01374*#102]
G01 X2.2478Y1.9017Z[#100+-0.0800]
#102=[#505+0.30576*#500-0.30576*#505]
#101=[#506+0.30576*#501-0.30576*#506]
#100=[#102+0.01532*#101-0.01532*#102]
G01 X2.2602Y1.9005Z[#100+-0.0800]
G00 Z1.0000
G00 X7.0100Y4.4405
#102=[#510+0.97518*#505-0.97518*#510]
#101=[#511+0.97518*#506-0.97518*#511]
#100=[#102+0.61757*#101-0.61757*#102]
G01 Z[#100+-0.0800]
#102=[#511+0.97519*#506-0.97519*#511]
#101=[#512+0.97519*#507-0.97519*#512]
#100=[#102+0.25155*#101-0.25155*#102]
G01 X12.01000Y4.44046Z[#100+-0.0800] ;segmented line. Max segment length set to 5
#102=[#511+0.97519*#506-0.97519*#511]
#101=[#512+0.97519*#507-0.97519*#512]
#100=[#102+0.88553*#101-0.88553*#102]
G01 X17.01000Y4.44042Z[#100+-0.0800] ;segmented line. Max segment length set to 5
#102=[#512+0.97520*#507-0.97520*#512]
#101=[#513+0.97520*#508-0.97520*#513]
#100=[#102+0.51951*#101-0.51951*#102]
G01 X22.01000Y4.44038Z[#100+-0.0800] ;segmented line. Max segment length set to 5
#102=[#513+0.97520*#508-0.97520*#513]
#101=[#514+0.97520*#509-0.97520*#514]
#100=[#102+0.15349*#101-0.15349*#102]
G01 X27.01000Y4.44034Z[#100+-0.0800] ;segmented line. Max segment length set to 5
#102=[#513+0.97521*#508-0.97521*#513]
#101=[#514+0.97521*#509-0.97521*#514]
#100=[#102+0.78746*#101-0.78746*#102]
G01 X32.01000Y4.44031Z[#100+-0.0800] ;segmented line. Max segment length set to 5
#102=[#513+0.97521*#508-0.97521*#513]
#101=[#514+0.97521*#509-0.97521*#514]
#100=[#102+0.96779*#101-0.96779*#102]
G01 X33.4322Y4.4403Z[#100+-0.0800]
#102=[#513+0.97502*#508-0.97502*#513]
#101=[#514+0.97502*#509-0.97502*#514]
#100=[#102+0.97015*#101-0.97015*#102]
G01 X33.4508Y4.4417Z[#100+-0.0800]
#102=[#513+0.97471*#508-0.97471*#513]
#101=[#514+0.97471*#509-0.97471*#514]
#100=[#102+0.97171*#101-0.97171*#102]
G01 X33.4631Y4.4441Z[#100+-0.0800]
#102=[#513+0.97424*#508-0.97424*#513]
#101=[#514+0.97424*#509-0.97424*#514]
#100=[#102+0.97322*#101-0.97322*#102]
G01 X33.4750Y4.4477Z[#100+-0.0800]
#102=[#513+0.97362*#508-0.97362*#513]
#101=[#514+0.97362*#509-0.97362*#514]
#100=[#102+0.97468*#101-0.97468*#102]
G01 X33.4865Y4.4525Z[#100+-0.0800]
#102=[#513+0.97285*#508-0.97285*#513]
#101=[#514+0.97285*#509-0.97285*#514]
#100=[#102+0.97607*#101-0.97607*#102]
G01 X33.4975Y4.4584Z[#100+-0.0800]
#102=[#513+0.97195*#508-0.97195*#513]
#101=[#514+0.97195*#509-0.97195*#514]
#100=[#102+0.97739*#101-0.97739*#102]
G01 X33.5079Y4.4653Z[#100+-0.0800]
#102=[#513+0.97092*#508-0.97092*#513]
#101=[#514+0.97092*#509-0.97092*#514]
#100=[#102+0.97861*#101-0.97861*#102]
G01 X33.5175Y4.4732Z[#100+-0.0800]
#102=[#513+0.95325*#508-0.95325*#513]
#101=[#514+0.95325*#509-0.95325*#514]
#100=[#102+0.99583*#101-0.99583*#102]
G01 X33.6533Y4.6090Z[#100+-0.0800]
#102=[#513+0.95200*#508-0.95200*#513]
#101=[#514+0.95200*#509-0.95200*#514]
#100=[#102+0.99683*#101-0.99683*#102]
G01 X33.6612Y4.6186Z[#100+-0.0800]
#102=[#513+0.95065*#508-0.95065*#513]
#101=[#514+0.95065*#509-0.95065*#514]
#100=[#102+0.99770*#101-0.99770*#102]
G01 X33.6681Y4.6290Z[#100+-0.0800]
#102=[#513+0.94922*#508-0.94922*#513]
#101=[#514+0.94922*#509-0.94922*#514]
#100=[#102+0.99845*#101-0.99845*#102]
G01 X33.6740Y4.6400Z[#100+-0.0800]
#102=[#513+0.94772*#508-0.94772*#513]
#101=[#514+0.94772*#509-0.94772*#514]
#100=[#102+0.99906*#101-0.99906*#102]
G01 X33.6788Y4.6515Z[#100+-0.0800]
#102=[#513+0.94617*#508-0.94617*#513]
#101=[#514+0.94617*#509-0.94617*#514]
#100=[#102+0.99952*#101-0.99952*#102]
G01 X33.6824Y4.6634Z[#100+-0.0800]
#102=[#513+0.94457*#508-0.94457*#513]
#101=[#514+0.94457*#509-0.94457*#514]
#100=[#102+0.99982*#101-0.99982*#102]
G01 X33.6848Y4.6757Z[#100+-0.0800]
#102=[#513+0.94296*#508-0.94296*#513]
#101=[#514+0.94296*#509-0.94296*#514]
#100=[#102+0.99997*#101-0.99997*#102]
G01 X33.6860Y4.6881Z[#100+-0.0800]
#102=[#513+0.29221*#508-0.29221*#513]
#101=[#514+0.29221*#509-0.29221*#514]
#100=[#102+1.00000*#101-1.00000*#102]
G01 X33.68619Y9.68810Z[#100+-0.0800] ;segmented line. Max segment length set to 5
#102=[#514+0.24793*#509-0.24793*#514]
#101=[#514+0.24793*#509-0.24793*#514]
#100=[#102+0*#101-0*#102]
G01 X33.6862Y10.0283Z[#100+-0.0800]
#102=[#513+0.24551*#508-0.24551*#513]
#101=[#514+0.24551*#509-0.24551*#514]
#100=[#102+0.99982*#101-0.99982*#102]
G01 X33.6848Y10.0469Z[#100+-0.0800]
#102=[#513+0.24391*#508-0.24391*#513]
#101=[#514+0.24391*#509-0.24391*#514]
#100=[#102+0.99952*#101-0.99952*#102]
G01 X33.6824Y10.0592Z[#100+-0.0800]
#102=[#513+0.24236*#508-0.24236*#513]
#101=[#514+0.24236*#509-0.24236*#514]
#100=[#102+0.99906*#101-0.99906*#102]
G01 X33.6788Y10.0711Z[#100+-0.0800]
#102=[#513+0.24087*#508-0.24087*#513]
#101=[#514+0.24087*#509-0.24087*#514]
#100=[#102+0.99845*#101-0.99845*#102]
G01 X33.6740Y10.0826Z[#100+-0.0800]
#102=[#513+0.23944*#508-0.23944*#513]
#101=[#514+0.23944*#509-0.23944*#514]
#100=[#102+0.99770*#101-0.99770*#102]
G01 X33.6681Y10.0936Z[#100+-0.0800]
#102=[#513+0.23808*#508-0.23808*#513]
#101=[#514+0.23808*#509-0.23808*#514]
#100=[#102+0.99683*#101-0.99683*#102]
G01 X33.6612Y10.1040Z[#100+-0.0800]
#102=[#513+0.23625*#508-0.23625*#513]
#101=[#514+0.23625*#509-0.23625*#514]
#100=[#102+0.99528*#101-0.99528*#102]
G01 X33.6490Y10.1181Z[#100+-0.0800]
#102=[#513+0.15360*#508-0.15360*#513]
#101=[#514+0.15360*#509-0.15360*#514]
#100=[#102+0.91477*#101-0.91477*#102]
G01 X33.0140Y10.7531Z[#100+-0.0800]
#102=[#513+0.15201*#508-0.15201*#513]
#101=[#514+0.15201*#509-0.15201*#514]
#100=[#102+0.91298*#101-0.91298*#102]
G01 X32.9999Y10.7653Z[#100+-0.0800]
#102=[#513+0.15112*#508-0.15112*#513]
#101=[#514+0.15112*#509-0.15112*#514]
#100=[#102+0.91166*#101-0.91166*#102]
G01 X32.9895Y10.7722Z[#100+-0.0800]
#102=[#513+0.15035*#508-0.15035*#513]
#101=[#514+0.15035*#509-0.15035*#514]
#100=[#102+0.91027*#101-0.91027*#102]
G01 X32.9785Y10.7781Z[#100+-0.0800]
#102=[#513+0.14972*#508-0.14972*#513]
#101=[#514+0.14972*#509-0.14972*#514]
#100=[#102+0.90881*#101-0.90881*#102]
G01 X32.9670Y10.7829Z[#100+-0.0800]
#102=[#513+0.14925*#508-0.14925*#513]
#101=[#514+0.14925*#509-0.14925*#514]
#100=[#102+0.90730*#101-0.90730*#102]
G01 X32.9551Y10.7865Z[#100+-0.0800]
#102=[#513+0.14894*#508-0.14894*#513]
#101=[#514+0.14894*#509-0.14894*#514]
#100=[#102+0.90574*#101-0.90574*#102]
G01 X32.9428Y10.7889Z[#100+-0.0800]
#102=[#513+0.14879*#508-0.14879*#513]
#101=[#514+0.14879*#509-0.14879*#514]
#100=[#102+0.90417*#101-0.90417*#102]
G01 X32.9304Y10.7901Z[#100+-0.0800]
#102=[#513+0.14878*#508-0.14878*#513]
#101=[#514+0.14878*#509-0.14878*#514]
#100=[#102+0.27019*#101-0.27019*#102]
G01 X27.93040Y10.79014Z[#100+-0.0800] ;segmented line. Max segment length set to 5
#102=[#512+0.14878*#507-0.14878*#512]
#101=[#513+0.14878*#508-0.14878*#513]
#100=[#102+0.63621*#101-0.63621*#102]
G01 X22.93040Y10.79018Z[#100+-0.0800] ;segmented line. Max segment length set to 5
#102=[#512+0.14877*#507-0.14877*#512]
#101=[#513+0.14877*#508-0.14877*#513]
#100=[#102+0.00223*#101-0.00223*#102]
G01 X17.93040Y10.79022Z[#100+-0.0800] ;segmented line. Max segment length set to 5
#102=[#511+0.14877*#506-0.14877*#511]
#101=[#512+0.14877*#507-0.14877*#512]
#100=[#102+0.36825*#101-0.36825*#102]
G01 X12.93040Y10.79026Z[#100+-0.0800] ;segmented line. Max segment length set to 5
#102=[#510+0.14876*#505-0.14876*#510]
#101=[#511+0.14876*#506-0.14876*#511]
#100=[#102+0.84702*#101-0.84702*#102]
G01 X8.8196Y10.7903Z[#100+-0.0800]
#102=[#510+0.14894*#505-0.14894*#510]
#101=[#511+0.14894*#506-0.14894*#511]
#100=[#102+0.84466*#101-0.84466*#102]
G01 X8.8010Y10.7889Z[#100+-0.0800]
#102=[#510+0.14925*#505-0.14925*#510]
#101=[#511+0.14925*#506-0.14925*#511]
#100=[#102+0.84310*#101-0.84310*#102]
G01 X8.7887Y10.7865Z[#100+-0.0800]
#102=[#510+0.14972*#505-0.14972*#510]
#101=[#511+0.14972*#506-0.14972*#511]
#100=[#102+0.84159*#101-0.84159*#102]
G01 X8.7768Y10.7829Z[#100+-0.0800]
#102=[#510+0.15035*#505-0.15035*#510]
#101=[#511+0.15035*#506-0.15035*#511]
#100=[#102+0.84014*#101-0.84014*#102]
G01 X8.7653Y10.7781Z[#100+-0.0800]
#102=[#510+0.15112*#505-0.15112*#510]
#101=[#511+0.15112*#506-0.15112*#511]
#100=[#102+0.83874*#101-0.83874*#102]
G01 X8.7543Y10.7722Z[#100+-0.0800]
#102=[#510+0.15201*#505-0.15201*#510]
#101=[#511+0.15201*#506-0.15201*#511]
#100=[#102+0.83742*#101-0.83742*#102]
G01 X8.7439Y10.7653Z[#100+-0.0800]
#102=[#510+0.15304*#505-0.15304*#510]
#101=[#511+0.15304*#506-0.15304*#511]
#100=[#102+0.83621*#101-0.83621*#102]
G01 X8.7343Y10.7574Z[#100+-0.0800]
#102=[#510+0.15773*#505-0.15773*#510]
#101=[#511+0.15773*#506-0.15773*#511]
#100=[#102+0.83162*#101-0.83162*#102]
G01 X8.6981Y10.7214Z[#100+-0.0800]
#102=[#510+0.17233*#505-0.17233*#510]
#101=[#511+0.17233*#506-0.17233*#511]
#100=[#102+0.79463*#101-0.79463*#102]
G01 X8.4064Y10.6092Z[#100+-0.0800]
#102=[#510+0.17833*#505-0.17833*#510]
#101=[#511+0.17833*#506-0.17833*#511]
#100=[#102+0.75371*#101-0.75371*#102]
G01 X8.0837Y10.5631Z[#100+-0.0800]
#102=[#510+0.17237*#505-0.17237*#510]
#101=[#511+0.17237*#506-0.17237*#511]
#100=[#102+0.71591*#101-0.71591*#102]
G01 X7.7856Y10.6089Z[#100+-0.0800]
#102=[#510+0.15773*#505-0.15773*#510]
#101=[#511+0.15773*#506-0.15773*#511]
#100=[#102+0.67885*#101-0.67885*#102]
G01 X7.4933Y10.7214Z[#100+-0.0800]
#102=[#510+0.15360*#505-0.15360*#510]
#101=[#511+0.15360*#506-0.15360*#511]
#100=[#102+0.67483*#101-0.67483*#102]
G01 X7.4616Y10.7531Z[#100+-0.0800]
#102=[#510+0.15201*#505-0.15201*#510]
#101=[#511+0.15201*#506-0.15201*#511]
#100=[#102+0.67304*#101-0.67304*#102]
G01 X7.4475Y10.7653Z[#100+-0.0800]
#102=[#510+0.15112*#505-0.15112*#510]
#101=[#511+0.15112*#506-0.15112*#511]
#100=[#102+0.67173*#101-0.67173*#102]
G01 X7.4371Y10.7722Z[#100+-0.0800]
#102=[#510+0.15035*#505-0.15035*#510]
#101=[#511+0.15035*#506-0.15035*#511]
#100=[#102+0.67033*#101-0.67033*#102]
G01 X7.4261Y10.7781Z[#100+-0.0800]
#102=[#510+0.14972*#505-0.14972*#510]
#101=[#511+0.14972*#506-0.14972*#511]
#100=[#102+0.66887*#101-0.66887*#102]
G01 X7.4146Y10.7829Z[#100+-0.0800]
#102=[#510+0.14925*#505-0.14925*#510]
#101=[#511+0.14925*#506-0.14925*#511]
#100=[#102+0.66736*#101-0.66736*#102]
G01 X7.4027Y10.7865Z[#100+-0.0800]
#102=[#510+0.14894*#505-0.14894*#510]
#101=[#511+0.14894*#506-0.14894*#511]
#100=[#102+0.66580*#101-0.66580*#102]
G01 X7.3904Y10.7889Z[#100+-0.0800]
#102=[#510+0.14876*#505-0.14876*#510]
#101=[#511+0.14876*#506-0.14876*#511]
#100=[#102+0.66345*#101-0.66345*#102]
G01 X7.3718Y10.7903Z[#100+-0.0800]
#102=[#510+0.14876*#505-0.14876*#510]
#101=[#511+0.14876*#506-0.14876*#511]
#100=[#102+0.61836*#101-0.61836*#102]
G01 X7.0162Y10.7903Z[#100+-0.0800]
#102=[#510+0.14894*#505-0.14894*#510]
#101=[#511+0.14894*#506-0.14894*#511]
#100=[#102+0.61600*#101-0.61600*#102]
G01 X6.9976Y10.7889Z[#100+-0.0800]
#102=[#510+0.14925*#505-0.14925*#510]
#101=[#511+0.14925*#506-0.14925*#511]
#100=[#102+0.61444*#101-0.61444*#102]
G01 X6.9853Y10.7865Z[#100+-0.0800]
#102=[#510+0.14972*#505-0.14972*#510]
#101=[#511+0.14972*#506-0.14972*#511]
#100=[#102+0.61293*#101-0.61293*#102]
G01 X6.9734Y10.7829Z[#100+-0.0800]
#102=[#510+0.15035*#505-0.15035*#510]
#101=[#511+0.15035*#506-0.15035*#511]
#100=[#102+0.61147*#101-0.61147*#102]
G01 X6.9619Y10.7781Z[#100+-0.0800]
#102=[#510+0.15112*#505-0.15112*#510]
#101=[#511+0.15112*#506-0.15112*#511]
#100=[#102+0.61008*#101-0.61008*#102]
G01 X6.9509Y10.7722Z[#100+-0.0800]
#102=[#510+0.15201*#505-0.15201*#510]
#101=[#511+0.15201*#506-0.15201*#511]
#100=[#102+0.60876*#101-0.60876*#102]
G01 X6.9405Y10.7653Z[#100+-0.0800]
#102=[#510+0.15304*#505-0.15304*#510]
#101=[#511+0.15304*#506-0.15304*#511]
#100=[#102+0.60754*#101-0.60754*#102]
G01 X6.9309Y10.7574Z[#100+-0.0800]
#102=[#510+0.15419*#505-0.15419*#510]
#101=[#511+0.15419*#506-0.15419*#511]
#100=[#102+0.60643*#101-0.60643*#102]
G01 X6.9221Y10.7486Z[#100+-0.0800]
#102=[#510+0.15544*#505-0.15544*#510]
#101=[#511+0.15544*#506-0.15544*#511]
#100=[#102+0.60542*#101-0.60542*#102]
G01 X6.9142Y10.7390Z[#100+-0.0800]
#102=[#510+0.15679*#505-0.15679*#510]
#101=[#511+0.15679*#506-0.15679*#511]
#100=[#102+0.60455*#101-0.60455*#102]
G01 X6.9073Y10.7286Z[#100+-0.0800]
#102=[#510+0.15822*#505-0.15822*#510]
#101=[#511+0.15822*#506-0.15822*#511]
#100=[#102+0.60380*#101-0.60380*#102]
G01 X6.9014Y10.7176Z[#100+-0.0800]
#102=[#510+0.15972*#505-0.15972*#510]
#101=[#511+0.15972*#506-0.15972*#511]
#100=[#102+0.60319*#101-0.60319*#102]
G01 X6.8966Y10.7061Z[#100+-0.0800]
#102=[#510+0.16127*#505-0.16127*#510]
#101=[#511+0.16127*#506-0.16127*#511]
#100=[#102+0.60274*#101-0.60274*#102]
G01 X6.8930Y10.6942Z[#100+-0.0800]
#102=[#510+0.16287*#505-0.16287*#510]
#101=[#511+0.16287*#506-0.16287*#511]
#100=[#102+0.60243*#101-0.60243*#102]
G01 X6.8906Y10.6819Z[#100+-0.0800]
#102=[#510+0.16529*#505-0.16529*#510]
#101=[#511+0.16529*#506-0.16529*#511]
#100=[#102+0.60225*#101-0.60225*#102]
G01 X6.8892Y10.6633Z[#100+-0.0800]
#102=[#510+0.81603*#505-0.81603*#510]
#101=[#511+0.81603*#506-0.81603*#511]
#100=[#102+0.60225*#101-0.60225*#102]
G01 X6.88920Y5.66330Z[#100+-0.0800] ;segmented line. Max segment length set to 5
#102=[#510+0.95868*#505-0.95868*#510]
#101=[#511+0.95868*#506-0.95868*#511]
#100=[#102+0.60225*#101-0.60225*#102]
G01 X6.8892Y4.5673Z[#100+-0.0800]
#102=[#510+0.96110*#505-0.96110*#510]
#101=[#511+0.96110*#506-0.96110*#511]
#100=[#102+0.60243*#101-0.60243*#102]
G01 X6.8906Y4.5487Z[#100+-0.0800]
#102=[#510+0.96270*#505-0.96270*#510]
#101=[#511+0.96270*#506-0.96270*#511]
#100=[#102+0.60274*#101-0.60274*#102]
G01 X6.8930Y4.5364Z[#100+-0.0800]
#102=[#510+0.96425*#505-0.96425*#510]
#101=[#511+0.96425*#506-0.96425*#511]
#100=[#102+0.60319*#101-0.60319*#102]
G01 X6.8966Y4.5245Z[#100+-0.0800]
#102=[#510+0.96574*#505-0.96574*#510]
#101=[#511+0.96574*#506-0.96574*#511]
#100=[#102+0.60380*#101-0.60380*#102]
G01 X6.9014Y4.5130Z[#100+-0.0800]
#102=[#510+0.96718*#505-0.96718*#510]
#101=[#511+0.96718*#506-0.96718*#511]
#100=[#102+0.60455*#101-0.60455*#102]
G01 X6.9073Y4.5020Z[#100+-0.0800]
#102=[#510+0.96853*#505-0.96853*#510]
#101=[#511+0.96853*#506-0.96853*#511]
#100=[#102+0.60542*#101-0.60542*#102]
G01 X6.9142Y4.4916Z[#100+-0.0800]
#102=[#510+0.96978*#505-0.96978*#510]
#101=[#511+0.96978*#506-0.96978*#511]
#100=[#102+0.60643*#101-0.60643*#102]
G01 X6.9221Y4.4820Z[#100+-0.0800]
#102=[#510+0.97092*#505-0.97092*#510]
#101=[#511+0.97092*#506-0.97092*#511]
#100=[#102+0.60754*#101-0.60754*#102]
G01 X6.9309Y4.4732Z[#100+-0.0800]
#102=[#510+0.97195*#505-0.97195*#510]
#101=[#511+0.97195*#506-0.97195*#511]
#100=[#102+0.60876*#101-0.60876*#102]
G01 X6.9405Y4.4653Z[#100+-0.0800]
#102=[#510+0.97285*#505-0.97285*#510]
#101=[#511+0.97285*#506-0.97285*#511]
#100=[#102+0.61008*#101-0.61008*#102]
G01 X6.9509Y4.4584Z[#100+-0.0800]
#102=[#510+0.97362*#505-0.97362*#510]
#101=[#511+0.97362*#506-0.97362*#511]
#100=[#102+0.61147*#101-0.61147*#102]
G01 X6.9619Y4.4525Z[#100+-0.0800]
#102=[#510+0.97424*#505-0.97424*#510]
#101=[#511+0.97424*#506-0.97424*#511]
#100=[#102+0.61293*#101-0.61293*#102]
G01 X6.9734Y4.4477Z[#100+-0.0800]
#102=[#510+0.97471*#505-0.97471*#510]
#101=[#511+0.97471*#506-0.97471*#511]
#100=[#102+0.61444*#101-0.61444*#102]
G01 X6.9853Y4.4441Z[#100+-0.0800]
#102=[#510+0.97502*#505-0.97502*#510]
#101=[#511+0.97502*#506-0.97502*#511]
#100=[#102+0.61600*#101-0.61600*#102]
G01 X6.9976Y4.4417Z[#100+-0.0800]
#102=[#510+0.97518*#505-0.97518*#510]
#101=[#511+0.97518*#506-0.97518*#511]
#100=[#102+0.61757*#101-0.61757*#102]
G01 X7.0100Y4.4405Z[#100+-0.0800]
G00 Z1.0000
G00 X2.2602Y11.9335
#102=[#515+0.99997*#510-0.99997*#515]
#101=[#516+0.99997*#511-0.99997*#516]
#100=[#102+0.01532*#101-0.01532*#102]
G01 Z[#100+-0.0800]
#102=[#510+0*#510-0*#510]
#101=[#511+0*#511-0*#511]
#100=[#102+0.57971*#101-0.57971*#102]
G01 X6.7114Y11.9333Z[#100+-0.0800]
#102=[#515+0.99982*#510-0.99982*#515]
#101=[#516+0.99982*#511-0.99982*#516]
#100=[#102+0.58207*#101-0.58207*#102]
G01 X6.7300Y11.9347Z[#100+-0.0800]
#102=[#515+0.99951*#510-0.99951*#515]
#101=[#516+0.99951*#511-0.99951*#516]
#100=[#102+0.58363*#101-0.58363*#102]
G01 X6.7423Y11.9371Z[#100+-0.0800]
#102=[#515+0.99904*#510-0.99904*#515]
#101=[#516+0.99904*#511-0.99904*#516]
#100=[#102+0.58514*#101-0.58514*#102]
G01 X6.7542Y11.9407Z[#100+-0.0800]
#102=[#515+0.99841*#510-0.99841*#515]
#101=[#516+0.99841*#511-0.99841*#516]
#100=[#102+0.58660*#101-0.58660*#102]
G01 X6.7657Y11.9455Z[#100+-0.0800]
#102=[#515+0.99764*#510-0.99764*#515]
#101=[#516+0.99764*#511-0.99764*#516]
#100=[#102+0.58799*#101-0.58799*#102]
G01 X6.7767Y11.9514Z[#100+-0.0800]
#102=[#515+0.99675*#510-0.99675*#515]
#101=[#516+0.99675*#511-0.99675*#516]
#100=[#102+0.58931*#101-0.58931*#102]
G01 X6.7871Y11.9583Z[#100+-0.0800]
#102=[#515+0.99572*#510-0.99572*#515]
#101=[#516+0.99572*#511-0.99572*#516]
#100=[#102+0.59053*#101-0.59053*#102]
G01 X6.7967Y11.9662Z[#100+-0.0800]
#102=[#515+0.99457*#510-0.99457*#515]
#101=[#516+0.99457*#511-0.99457*#516]
#100=[#102+0.59164*#101-0.59164*#102]
G01 X6.8055Y11.9750Z[#100+-0.0800]
#102=[#515+0.99332*#510-0.99332*#515]
#101=[#516+0.99332*#511-0.99332*#516]
#100=[#102+0.59264*#101-0.59264*#102]
G01 X6.8134Y11.9846Z[#100+-0.0800]
#102=[#515+0.99197*#510-0.99197*#515]
#101=[#516+0.99197*#511-0.99197*#516]
#100=[#102+0.59352*#101-0.59352*#102]
G01 X6.8203Y11.9950Z[#100+-0.0800]
#102=[#515+0.99054*#510-0.99054*#515]
#101=[#516+0.99054*#511-0.99054*#516]
#100=[#102+0.59427*#101-0.59427*#102]
G01 X6.8262Y12.0060Z[#100+-0.0800]
#102=[#515+0.98904*#510-0.98904*#515]
#101=[#516+0.98904*#511-0.98904*#516]
#100=[#102+0.59487*#101-0.59487*#102]
G01 X6.8310Y12.0175Z[#100+-0.0800]
#102=[#515+0.98749*#510-0.98749*#515]
#101=[#516+0.98749*#511-0.98749*#516]
#100=[#102+0.59533*#101-0.59533*#102]
G01 X6.8346Y12.0294Z[#100+-0.0800]
#102=[#515+0.98589*#510-0.98589*#515]
#101=[#516+0.98589*#511-0.98589*#516]
#100=[#102+0.59564*#101-0.59564*#102]
G01 X6.8370Y12.0417Z[#100+-0.0800]
#102=[#515+0.98347*#510-0.98347*#515]
#101=[#516+0.98347*#511-0.98347*#516]
#100=[#102+0.59581*#101-0.59581*#102]
G01 X6.8384Y12.0603Z[#100+-0.0800]
#102=[#515+0.33273*#510-0.33273*#515]
#101=[#516+0.33273*#511-0.33273*#516]
#100=[#102+0.59581*#101-0.59581*#102]
G01 X6.83840Y17.06030Z[#100+-0.0800] ;segmented line. Max segment length set to 5
#102=[#515+0.05785*#510-0.05785*#515]
#101=[#516+0.05785*#511-0.05785*#516]
#100=[#102+0.59581*#101-0.59581*#102]
G01 X6.8384Y19.1723Z[#100+-0.0800]
#102=[#516+0.05785*#511-0.05785*#516]
#101=[#517+0.05785*#512-0.05785*#517]
#100=[#102+0.22979*#101-0.22979*#102]
G01 X11.83840Y19.17230Z[#100+-0.0800] ;segmented line. Max segment length set to 5
#102=[#516+0.05785*#511-0.05785*#516]
#101=[#517+0.05785*#512-0.05785*#517]
#100=[#102+0.86377*#101-0.86377*#102]
G01 X16.83840Y19.17230Z[#100+-0.0800] ;segmented line. Max segment length set to 5
#102=[#517+0.05785*#512-0.05785*#517]
#101=[#518+0.05785*#513-0.05785*#518]
#100=[#102+0.49775*#101-0.49775*#102]
G01 X21.83840Y19.17230Z[#100+-0.0800] ;segmented line. Max segment length set to 5
#102=[#518+0.05785*#513-0.05785*#518]
#101=[#519+0.05785*#514-0.05785*#519]
#100=[#102+0.13173*#101-0.13173*#102]
G01 X26.83840Y19.17230Z[#100+-0.0800] ;segmented line. Max segment length set to 5
#102=[#518+0.05785*#513-0.05785*#518]
#101=[#519+0.05785*#514-0.05785*#519]
#100=[#102+0.76571*#101-0.76571*#102]
G01 X31.83840Y19.17230Z[#100+-0.0800] ;segmented line. Max segment length set to 5
#102=[#518+0.05785*#513-0.05785*#518]
#101=[#519+0.05785*#514-0.05785*#519]
#100=[#102+0.96135*#101-0.96135*#102]
G01 X33.3814Y19.1723Z[#100+-0.0800]
#102=[#518+0.05767*#513-0.05767*#518]
#101=[#519+0.05767*#514-0.05767*#519]
#100=[#102+0.96371*#101-0.96371*#102]
G01 X33.4000Y19.1737Z[#100+-0.0800]
#102=[#518+0.05736*#513-0.05736*#518]
#101=[#519+0.05736*#514-0.05736*#519]
#100=[#102+0.96527*#101-0.96527*#102]
G01 X33.4123Y19.1761Z[#100+-0.0800]
#102=[#518+0.05689*#513-0.05689*#518]
#101=[#519+0.05689*#514-0.05689*#519]
#100=[#102+0.96678*#101-0.96678*#102]
G01 X33.4242Y19.1797Z[#100+-0.0800]
#102=[#518+0.05626*#513-0.05626*#518]
#101=[#519+0.05626*#514-0.05626*#519]
#100=[#102+0.96824*#101-0.96824*#102]
G01 X33.4357Y19.1845Z[#100+-0.0800]
#102=[#518+0.05550*#513-0.05550*#518]
#101=[#519+0.05550*#514-0.05550*#519]
#100=[#102+0.96963*#101-0.96963*#102]
G01 X33.4467Y19.1904Z[#100+-0.0800]
#102=[#518+0.05460*#513-0.05460*#518]
#101=[#519+0.05460*#514-0.05460*#519]
#100=[#102+0.97095*#101-0.97095*#102]
G01 X33.4571Y19.1973Z[#100+-0.0800]
#102=[#518+0.05357*#513-0.05357*#518]
#101=[#519+0.05357*#514-0.05357*#519]
#100=[#102+0.97217*#101-0.97217*#102]
G01 X33.4667Y19.2052Z[#100+-0.0800]
#102=[#518+0.03590*#513-0.03590*#518]
#101=[#519+0.03590*#514-0.03590*#519]
#100=[#102+0.98939*#101-0.98939*#102]
G01 X33.6025Y19.3410Z[#100+-0.0800]
#102=[#518+0.03465*#513-0.03465*#518]
#101=[#519+0.03465*#514-0.03465*#519]
#100=[#102+0.99039*#101-0.99039*#102]
G01 X33.6104Y19.3506Z[#100+-0.0800]
#102=[#518+0.03329*#513-0.03329*#518]
#101=[#519+0.03329*#514-0.03329*#519]
#100=[#102+0.99126*#101-0.99126*#102]
G01 X33.6173Y19.3610Z[#100+-0.0800]
#102=[#518+0.03186*#513-0.03186*#518]
#101=[#519+0.03186*#514-0.03186*#519]
#100=[#102+0.99201*#101-0.99201*#102]
G01 X33.6232Y19.3720Z[#100+-0.0800]
#102=[#518+0.03036*#513-0.03036*#518]
#101=[#519+0.03036*#514-0.03036*#519]
#100=[#102+0.99262*#101-0.99262*#102]
G01 X33.6280Y19.3835Z[#100+-0.0800]
#102=[#518+0.02881*#513-0.02881*#518]
#101=[#519+0.02881*#514-0.02881*#519]
#100=[#102+0.99308*#101-0.99308*#102]
G01 X33.6316Y19.3954Z[#100+-0.0800]
#102=[#518+0.02721*#513-0.02721*#518]
#101=[#519+0.02721*#514-0.02721*#519]
#100=[#102+0.99338*#101-0.99338*#102]
G01 X33.6340Y19.4077Z[#100+-0.0800]
#102=[#518+0.02479*#513-0.02479*#518]
#101=[#519+0.02479*#514-0.02479*#519]
#100=[#102+0.99356*#101-0.99356*#102]
G01 X33.6354Y19.4263Z[#100+-0.0800]
#102=[#523+0.37405*#518-0.37405*#523]
#101=[#524+0.37405*#519-0.37405*#524]
#100=[#102+0.99356*#101-0.99356*#102]
G01 X33.63540Y24.42630Z[#100+-0.0800] ;segmented line. Max segment length set to 5
#102=[#523+0.01653*#518-0.01653*#523]
#101=[#524+0.01653*#519-0.01653*#524]
#100=[#102+0.99356*#101-0.99356*#102]
G01 X33.6354Y27.1733Z[#100+-0.0800]
#102=[#523+0.01411*#518-0.01411*#523]
#101=[#524+0.01411*#519-0.01411*#524]
#100=[#102+0.99338*#101-0.99338*#102]
G01 X33.6340Y27.1919Z[#100+-0.0800]
#102=[#523+0.01251*#518-0.01251*#523]
#101=[#524+0.01251*#519-0.01251*#524]
#100=[#102+0.99308*#101-0.99308*#102]
G01 X33.6316Y27.2042Z[#100+-0.0800]
#102=[#523+0.01096*#518-0.01096*#523]
#101=[#524+0.01096*#519-0.01096*#524]
#100=[#102+0.99262*#101-0.99262*#102]
G01 X33.6280Y27.2161Z[#100+-0.0800]
#102=[#523+0.00946*#518-0.00946*#523]
#101=[#524+0.00946*#519-0.00946*#524]
#100=[#102+0.99201*#101-0.99201*#102]
G01 X33.6232Y27.2276Z[#100+-0.0800]
#102=[#523+0.00803*#518-0.00803*#523]
#101=[#524+0.00803*#519-0.00803*#524]
#100=[#102+0.99126*#101-0.99126*#102]
G01 X33.6173Y27.2386Z[#100+-0.0800]
#102=[#523+0.00668*#518-0.00668*#523]
#101=[#524+0.00668*#519-0.00668*#524]
#100=[#102+0.99039*#101-0.99039*#102]
G01 X33.6104Y27.2490Z[#100+-0.0800]
#102=[#523+0.00543*#518-0.00543*#523]
#101=[#524+0.00543*#519-0.00543*#524]
#100=[#102+0.98939*#101-0.98939*#102]
G01 X33.6025Y27.2586Z[#100+-0.0800]
#102=[#523+0.00428*#518-0.00428*#523]
#101=[#524+0.00428*#519-0.00428*#524]
#100=[#102+0.98827*#101-0.98827*#102]
G01 X33.5937Y27.2674Z[#100+-0.0800]
#102=[#523+0.00325*#518-0.00325*#523]
#101=[#524+0.00325*#519-0.00325*#524]
#100=[#102+0.98705*#101-0.98705*#102]
G01 X33.5841Y27.2753Z[#100+-0.0800]
#102=[#523+0.00236*#518-0.00236*#523]
#101=[#524+0.00236*#519-0.00236*#524]
#100=[#102+0.98574*#101-0.98574*#102]
G01 X33.5737Y27.2822Z[#100+-0.0800]
#102=[#523+0.00159*#518-0.00159*#523]
#101=[#524+0.00159*#519-0.00159*#524]
#100=[#102+0.98434*#101-0.98434*#102]
G01 X33.5627Y27.2881Z[#100+-0.0800]
#102=[#523+0.00096*#518-0.00096*#523]
#101=[#524+0.00096*#519-0.00096*#524]
#100=[#102+0.98288*#101-0.98288*#102]
G01 X33.5512Y27.2929Z[#100+-0.0800]
#102=[#523+0.00049*#518-0.00049*#523]
#101=[#524+0.00049*#519-0.00049*#524]
#100=[#102+0.98137*#101-0.98137*#102]
G01 X33.5393Y27.2965Z[#100+-0.0800]
#102=[#523+0.00018*#518-0.00018*#523]
#101=[#524+0.00018*#519-0.00018*#524]
#100=[#102+0.97981*#101-0.97981*#102]
G01 X33.5270Y27.2989Z[#100+-0.0800]
#102=[#523+0*#523-0*#523]
#101=[#524+0*#524-0*#524]
#100=[#102+0.97746*#101-0.97746*#102]
G01 X33.5084Y27.3003Z[#100+-0.0800]
#102=[#523+0*#523-0*#523]
#101=[#524+0*#524-0*#524]
#100=[#102+0.34348*#101-0.34348*#102]
G01 X28.50840Y27.30030Z[#100+-0.0800] ;segmented line. Max segment length set to 5
#102=[#522+0*#522-0*#522]
#101=[#523+0*#523-0*#523]
#100=[#102+0.70950*#101-0.70950*#102]
G01 X23.50840Y27.30030Z[#100+-0.0800] ;segmented line. Max segment length set to 5
#102=[#522+0*#522-0*#522]
#101=[#523+0*#523-0*#523]
#100=[#102+0.07552*#101-0.07552*#102]
G01 X18.50840Y27.30030Z[#100+-0.0800] ;segmented line. Max segment length set to 5
#102=[#521+0*#521-0*#521]
#101=[#522+0*#522-0*#522]
#100=[#102+0.49758*#101-0.49758*#102]
G01 X13.9504Y27.3003Z[#100+-0.0800]
#102=[#521+0.00018*#516-0.00018*#521]
#101=[#522+0.00018*#517-0.00018*#522]
#100=[#102+0.49523*#101-0.49523*#102]
G01 X13.9318Y27.2989Z[#100+-0.0800]
#102=[#521+0.00049*#516-0.00049*#521]
#101=[#522+0.00049*#517-0.00049*#522]
#100=[#102+0.49367*#101-0.49367*#102]
G01 X13.9195Y27.2965Z[#100+-0.0800]
#102=[#521+0.00096*#516-0.00096*#521]
#101=[#522+0.00096*#517-0.00096*#522]
#100=[#102+0.49216*#101-0.49216*#102]
G01 X13.9076Y27.2929Z[#100+-0.0800]
#102=[#521+0.00159*#516-0.00159*#521]
#101=[#522+0.00159*#517-0.00159*#522]
#100=[#102+0.49070*#101-0.49070*#102]
G01 X13.8961Y27.2881Z[#100+-0.0800]
#102=[#521+0.00236*#516-0.00236*#521]
#101=[#522+0.00236*#517-0.00236*#522]
#100=[#102+0.48930*#101-0.48930*#102]
G01 X13.8851Y27.2822Z[#100+-0.0800]
#102=[#521+0.00325*#516-0.00325*#521]
#101=[#522+0.00325*#517-0.00325*#522]
#100=[#102+0.48799*#101-0.48799*#102]
G01 X13.8747Y27.2753Z[#100+-0.0800]
#102=[#521+0.00484*#516-0.00484*#521]
#101=[#522+0.00484*#517-0.00484*#522]
#100=[#102+0.48620*#101-0.48620*#102]
G01 X13.8606Y27.2631Z[#100+-0.0800]
#102=[#521+0.46499*#516-0.46499*#521]
#101=[#522+0.46499*#517-0.46499*#522]
#100=[#102+0.03791*#101-0.03791*#102]
G01 X10.32507Y23.72757Z[#100+-0.0800] ;segmented line. Max segment length set to 5
#102=[#520+0.74380*#515-0.74380*#520]
#101=[#521+0.74380*#516-0.74380*#521]
#100=[#102+0.76628*#101-0.76628*#102]
G01 X8.1828Y21.5853Z[#100+-0.0800]
#102=[#520+0.74381*#515-0.74381*#520]
#101=[#521+0.74381*#516-0.74381*#521]
#100=[#102+0.63693*#101-0.63693*#102]
G01 X7.1627Y21.5852Z[#100+-0.0800]
#102=[#520+0.74396*#515-0.74396*#520]
#101=[#521+0.74396*#516-0.74396*#521]
#100=[#102+0.63545*#101-0.63545*#102]
G01 X7.1510Y21.5841Z[#100+-0.0800]
#102=[#520+0.74424*#515-0.74424*#520]
#101=[#521+0.74424*#516-0.74424*#521]
#100=[#102+0.63398*#101-0.63398*#102]
G01 X7.1394Y21.5819Z[#100+-0.0800]
#102=[#520+0.74466*#515-0.74466*#520]
#101=[#521+0.74466*#516-0.74466*#521]
#100=[#102+0.63255*#101-0.63255*#102]
G01 X7.1281Y21.5787Z[#100+-0.0800]
#102=[#520+0.74522*#515-0.74522*#520]
#101=[#521+0.74522*#516-0.74522*#521]
#100=[#102+0.63115*#101-0.63115*#102]
G01 X7.1171Y21.5744Z[#100+-0.0800]
#102=[#520+0.74733*#515-0.74733*#520]
#101=[#521+0.74733*#516-0.74733*#521]
#100=[#102+0.62699*#101-0.62699*#102]
G01 X7.0843Y21.5582Z[#100+-0.0800]
#102=[#520+0.75039*#515-0.75039*#520]
#101=[#521+0.75039*#516-0.75039*#521]
#100=[#102+0.57646*#101-0.57646*#102]
G01 X6.6858Y21.5347Z[#100+-0.0800]
#102=[#520+0.74733*#515-0.74733*#520]
#101=[#521+0.74733*#516-0.74733*#521]
#100=[#102+0.52274*#101-0.52274*#102]
G01 X6.2621Y21.5582Z[#100+-0.0800]
#102=[#520+0.74522*#515-0.74522*#520]
#101=[#521+0.74522*#516-0.74522*#521]
#100=[#102+0.51861*#101-0.51861*#102]
G01 X6.2295Y21.5744Z[#100+-0.0800]
#102=[#520+0.74466*#515-0.74466*#520]
#101=[#521+0.74466*#516-0.74466*#521]
#100=[#102+0.51721*#101-0.51721*#102]
G01 X6.2185Y21.5787Z[#100+-0.0800]
#102=[#520+0.74424*#515-0.74424*#520]
#101=[#521+0.74424*#516-0.74424*#521]
#100=[#102+0.51578*#101-0.51578*#102]
G01 X6.2072Y21.5819Z[#100+-0.0800]
#102=[#520+0.74396*#515-0.74396*#520]
#101=[#521+0.74396*#516-0.74396*#521]
#100=[#102+0.51431*#101-0.51431*#102]
G01 X6.1956Y21.5841Z[#100+-0.0800]
#102=[#520+0.74380*#515-0.74380*#520]
#101=[#521+0.74380*#516-0.74380*#521]
#100=[#102+0.51208*#101-0.51208*#102]
G01 X6.1780Y21.5853Z[#100+-0.0800]
#102=[#520+0.74380*#515-0.74380*#520]
#101=[#521+0.74380*#516-0.74380*#521]
#100=[#102+0.01610*#101-0.01610*#102]
G01 X2.2664Y21.5853Z[#100+-0.0800]
#102=[#520+0.74398*#515-0.74398*#520]
#101=[#521+0.74398*#516-0.74398*#521]
#100=[#102+0.01374*#101-0.01374*#102]
G01 X2.2478Y21.5839Z[#100+-0.0800]
#102=[#520+0.74430*#515-0.74430*#520]
#101=[#521+0.74430*#516-0.74430*#521]
#100=[#102+0.01219*#101-0.01219*#102]
G01 X2.2355Y21.5815Z[#100+-0.0800]
#102=[#520+0.74476*#515-0.74476*#520]
#101=[#521+0.74476*#516-0.74476*#521]
#100=[#102+0.01068*#101-0.01068*#102]
G01 X2.2236Y21.5779Z[#100+-0.0800]
#102=[#520+0.74539*#515-0.74539*#520]
#101=[#521+0.74539*#516-0.74539*#521]
#100=[#102+0.00922*#101-0.00922*#102]
G01 X2.2121Y21.5731Z[#100+-0.0800]
#102=[#520+0.74616*#515-0.74616*#520]
#101=[#521+0.74616*#516-0.74616*#521]
#100=[#102+0.00782*#101-0.00782*#102]
G01 X2.2011Y21.5672Z[#100+-0.0800]
#102=[#520+0.74706*#515-0.74706*#520]
#101=[#521+0.74706*#516-0.74706*#521]
#100=[#102+0.00650*#101-0.00650*#102]
G01 X2.1907Y21.5603Z[#100+-0.0800]
#102=[#520+0.74808*#515-0.74808*#520]
#101=[#521+0.74808*#516-0.74808*#521]
#100=[#102+0.00529*#101-0.00529*#102]
G01 X2.1811Y21.5524Z[#100+-0.0800]
#102=[#520+0.74923*#515-0.74923*#520]
#101=[#521+0.74923*#516-0.74923*#521]
#100=[#102+0.00417*#101-0.00417*#102]
G01 X2.1723Y21.5436Z[#100+-0.0800]
#102=[#520+0.75048*#515-0.75048*#520]
#101=[#521+0.75048*#516-0.75048*#521]
#100=[#102+0.00317*#101-0.00317*#102]
G01 X2.1644Y21.5340Z[#100+-0.0800]
#102=[#520+0.75183*#515-0.75183*#520]
#101=[#521+0.75183*#516-0.75183*#521]
#100=[#102+0.00230*#101-0.00230*#102]
G01 X2.1575Y21.5236Z[#100+-0.0800]
#102=[#520+0.75326*#515-0.75326*#520]
#101=[#521+0.75326*#516-0.75326*#521]
#100=[#102+0.00155*#101-0.00155*#102]
G01 X2.1516Y21.5126Z[#100+-0.0800]
#102=[#520+0.75476*#515-0.75476*#520]
#101=[#521+0.75476*#516-0.75476*#521]
#100=[#102+0.00094*#101-0.00094*#102]
G01 X2.1468Y21.5011Z[#100+-0.0800]
#102=[#520+0.75631*#515-0.75631*#520]
#101=[#521+0.75631*#516-0.75631*#521]
#100=[#102+0.00048*#101-0.00048*#102]
G01 X2.1432Y21.4892Z[#100+-0.0800]
#102=[#520+0.75791*#515-0.75791*#520]
#101=[#521+0.75791*#516-0.75791*#521]
#100=[#102+0.00018*#101-0.00018*#102]
G01 X2.1408Y21.4769Z[#100+-0.0800]
#102=[#520+0.76033*#515-0.76033*#520]
#101=[#520+0.76033*#515-0.76033*#520]
#100=[#102+0*#101-0*#102]
G01 X2.1394Y21.4583Z[#100+-0.0800]
#102=[#515+0.41108*#510-0.41108*#515]
#101=[#515+0.41108*#510-0.41108*#515]
#100=[#102+0*#101-0*#102]
G01 X2.13940Y16.45830Z[#100+-0.0800] ;segmented line. Max segment length set to 5
#102=[#515+0.98347*#510-0.98347*#515]
#101=[#515+0.98347*#510-0.98347*#515]
#100=[#102+0*#101-0*#102]
G01 X2.1394Y12.0603Z[#100+-0.0800]
#102=[#515+0.98589*#510-0.98589*#515]
#101=[#516+0.98589*#511-0.98589*#516]
#100=[#102+0.00018*#101-0.00018*#102]
G01 X2.1408Y12.0417Z[#100+-0.0800]
#102=[#515+0.98749*#510-0.98749*#515]
#101=[#516+0.98749*#511-0.98749*#516]
#100=[#102+0.00048*#101-0.00048*#102]
G01 X2.1432Y12.0294Z[#100+-0.0800]
#102=[#515+0.98904*#510-0.98904*#515]
#101=[#516+0.98904*#511-0.98904*#516]
#100=[#102+0.00094*#101-0.00094*#102]
G01 X2.1468Y12.0175Z[#100+-0.0800]
#102=[#515+0.99054*#510-0.99054*#515]
#101=[#516+0.99054*#511-0.99054*#516]
#100=[#102+0.00155*#101-0.00155*#102]
G01 X2.1516Y12.0060Z[#100+-0.0800]
#102=[#515+0.99197*#510-0.99197*#515]
#101=[#516+0.99197*#511-0.99197*#516]
#100=[#102+0.00230*#101-0.00230*#102]
G01 X2.1575Y11.9950Z[#100+-0.0800]
#102=[#515+0.99332*#510-0.99332*#515]
#101=[#516+0.99332*#511-0.99332*#516]
#100=[#102+0.00317*#101-0.00317*#102]
G01 X2.1644Y11.9846Z[#100+-0.0800]
#102=[#515+0.99457*#510-0.99457*#515]
#101=[#516+0.99457*#511-0.99457*#516]
#100=[#102+0.00417*#101-0.00417*#102]
G01 X2.1723Y11.9750Z[#100+-0.0800]
#102=[#515+0.99572*#510-0.99572*#515]
#101=[#516+0.99572*#511-0.99572*#516]
#100=[#102+0.00529*#101-0.00529*#102]
G01 X2.1811Y11.9662Z[#100+-0.0800]
#102=[#515+0.99675*#510-0.99675*#515]
#101=[#516+0.99675*#511-0.99675*#516]
#100=[#102+0.00650*#101-0.00650*#102]
G01 X2.1907Y11.9583Z[#100+-0.0800]
#102=[#515+0.99764*#510-0.99764*#515]
#101=[#516+0.99764*#511-0.99764*#516]
#100=[#102+0.00782*#101-0.00782*#102]
G01 X2.2011Y11.9514Z[#100+-0.0800]
#102=[#515+0.99841*#510-0.99841*#515]
#101=[#516+0.99841*#511-0.99841*#516]
#100=[#102+0.00922*#101-0.00922*#102]
G01 X2.2121Y11.9455Z[#100+-0.0800]
#102=[#515+0.99904*#510-0.99904*#515]
#101=[#516+0.99904*#511-0.99904*#516]
#100=[#102+0.01068*#101-0.01068*#102]
G01 X2.2236Y11.9407Z[#100+-0.0800]
#102=[#515+0.99951*#510-0.99951*#515]
#101=[#516+0.99951*#511-0.99951*#516]
#100=[#102+0.01219*#101-0.01219*#102]
G01 X2.2355Y11.9371Z[#100+-0.0800]
#102=[#515+0.99982*#510-0.99982*#515]
#101=[#516+0.99982*#511-0.99982*#516]
#100=[#102+0.01374*#101-0.01374*#102]
G01 X2.2478Y11.9347Z[#100+-0.0800]
#102=[#515+0.99997*#510-0.99997*#515]
#101=[#516+0.99997*#511-0.99997*#516]
#100=[#102+0.01532*#101-0.01532*#102]
G01 X2.2602Y11.9335Z[#100+-0.0800]
G00 Z1.0000
G00 X7.0926Y18.7721
#102=[#515+0.10994*#510-0.10994*#515]
#101=[#516+0.10994*#511-0.10994*#516]
#100=[#102+0.62804*#101-0.62804*#102]
G01 Z[#100+-0.0800]
#102=[#515+0.76068*#510-0.76068*#515]
#101=[#516+0.76068*#511-0.76068*#516]
#100=[#102+0.62804*#101-0.62804*#102]
G01 X7.09260Y13.77210Z[#100+-0.0800] ;segmented line. Max segment length set to 5
#102=[#515+0.86860*#510-0.86860*#515]
#101=[#516+0.86860*#511-0.86860*#516]
#100=[#102+0.62804*#101-0.62804*#102]
G01 X7.0926Y12.9429Z[#100+-0.0800]
#102=[#515+0.87025*#510-0.87025*#515]
#101=[#516+0.87025*#511-0.87025*#516]
#100=[#102+0.62820*#101-0.62820*#102]
G01 X7.0938Y12.9302Z[#100+-0.0800]
#102=[#515+0.87188*#510-0.87188*#515]
#101=[#516+0.87188*#511-0.87188*#516]
#100=[#102+0.62853*#101-0.62853*#102]
G01 X7.0964Y12.9177Z[#100+-0.0800]
#102=[#515+0.87347*#510-0.87347*#515]
#101=[#516+0.87347*#511-0.87347*#516]
#100=[#102+0.62901*#101-0.62901*#102]
G01 X7.1002Y12.9055Z[#100+-0.0800]
#102=[#515+0.87500*#510-0.87500*#515]
#101=[#516+0.87500*#511-0.87500*#516]
#100=[#102+0.62964*#101-0.62964*#102]
G01 X7.1052Y12.8937Z[#100+-0.0800]
#102=[#515+0.87646*#510-0.87646*#515]
#101=[#516+0.87646*#511-0.87646*#516]
#100=[#102+0.63043*#101-0.63043*#102]
G01 X7.1114Y12.8825Z[#100+-0.0800]
#102=[#515+0.87783*#510-0.87783*#515]
#101=[#516+0.87783*#511-0.87783*#516]
#100=[#102+0.63134*#101-0.63134*#102]
G01 X7.1186Y12.8720Z[#100+-0.0800]
#102=[#515+0.87909*#510-0.87909*#515]
#101=[#516+0.87909*#511-0.87909*#516]
#100=[#102+0.63239*#101-0.63239*#102]
G01 X7.1269Y12.8623Z[#100+-0.0800]
#102=[#515+0.88025*#510-0.88025*#515]
#101=[#516+0.88025*#511-0.88025*#516]
#100=[#102+0.63356*#101-0.63356*#102]
G01 X7.1361Y12.8534Z[#100+-0.0800]
#102=[#515+0.88128*#510-0.88128*#515]
#101=[#516+0.88128*#511-0.88128*#516]
#100=[#102+0.63484*#101-0.63484*#102]
G01 X7.1462Y12.8455Z[#100+-0.0800]
#102=[#515+0.88216*#510-0.88216*#515]
#101=[#516+0.88216*#511-0.88216*#516]
#100=[#102+0.63621*#101-0.63621*#102]
G01 X7.1570Y12.8387Z[#100+-0.0800]
#102=[#515+0.88917*#510-0.88917*#515]
#101=[#516+0.88917*#511-0.88917*#516]
#100=[#102+0.64980*#101-0.64980*#102]
G01 X7.2642Y12.7849Z[#100+-0.0800]
#102=[#515+0.89010*#510-0.89010*#515]
#101=[#516+0.89010*#511-0.89010*#516]
#100=[#102+0.65205*#101-0.65205*#102]
G01 X7.2819Y12.7777Z[#100+-0.0800]
#102=[#515+0.89054*#510-0.89054*#515]
#101=[#516+0.89054*#511-0.89054*#516]
#100=[#102+0.65362*#101-0.65362*#102]
G01 X7.2943Y12.7743Z[#100+-0.0800]
#102=[#515+0.89080*#510-0.89080*#515]
#101=[#516+0.89080*#511-0.89080*#516]
#100=[#102+0.65522*#101-0.65522*#102]
G01 X7.3069Y12.7723Z[#100+-0.0800]
#102=[#515+0.89091*#510-0.89091*#515]
#101=[#516+0.89091*#511-0.89091*#516]
#100=[#102+0.65683*#101-0.65683*#102]
G01 X7.3196Y12.7715Z[#100+-0.0800]
#102=[#515+0.89084*#510-0.89084*#515]
#101=[#516+0.89084*#511-0.89084*#516]
#100=[#102+0.65845*#101-0.65845*#102]
G01 X7.3324Y12.7720Z[#100+-0.0800]
#102=[#515+0.89061*#510-0.89061*#515]
#101=[#516+0.89061*#511-0.89061*#516]
#100=[#102+0.66006*#101-0.66006*#102]
G01 X7.3451Y12.7738Z[#100+-0.0800]
#102=[#515+0.89022*#510-0.89022*#515]
#101=[#516+0.89022*#511-0.89022*#516]
#100=[#102+0.66163*#101-0.66163*#102]
G01 X7.3575Y12.7768Z[#100+-0.0800]
#102=[#515+0.88966*#510-0.88966*#515]
#101=[#516+0.88966*#511-0.88966*#516]
#100=[#102+0.66315*#101-0.66315*#102]
G01 X7.3695Y12.7811Z[#100+-0.0800]
#102=[#515+0.88894*#510-0.88894*#515]
#101=[#516+0.88894*#511-0.88894*#516]
#100=[#102+0.66463*#101-0.66463*#102]
G01 X7.3811Y12.7866Z[#100+-0.0800]
#102=[#515+0.88808*#510-0.88808*#515]
#101=[#516+0.88808*#511-0.88808*#516]
#100=[#102+0.66601*#101-0.66601*#102]
G01 X7.3920Y12.7932Z[#100+-0.0800]
#102=[#515+0.87907*#510-0.87907*#515]
#101=[#516+0.87907*#511-0.87907*#516]
#100=[#102+0.67776*#101-0.67776*#102]
G01 X7.4847Y12.8625Z[#100+-0.0800]
#102=[#515+0.86399*#510-0.86399*#515]
#101=[#516+0.86399*#511-0.86399*#516]
#100=[#102+0.71591*#101-0.71591*#102]
G01 X7.7856Y12.9783Z[#100+-0.0800]
#102=[#515+0.85803*#510-0.85803*#515]
#101=[#516+0.85803*#511-0.85803*#516]
#100=[#102+0.75371*#101-0.75371*#102]
G01 X8.0837Y13.0241Z[#100+-0.0800]
#102=[#515+0.86403*#510-0.86403*#515]
#101=[#516+0.86403*#511-0.86403*#516]
#100=[#102+0.79463*#101-0.79463*#102]
G01 X8.4064Y12.9780Z[#100+-0.0800]
#102=[#515+0.87907*#510-0.87907*#515]
#101=[#516+0.87907*#511-0.87907*#516]
#100=[#102+0.83271*#101-0.83271*#102]
G01 X8.7067Y12.8625Z[#100+-0.0800]
#102=[#515+0.89796*#510-0.89796*#515]
#101=[#516+0.89796*#511-0.89796*#516]
#100=[#102+0.85728*#101-0.85728*#102]
G01 X8.9005Y12.7173Z[#100+-0.0800]
#102=[#515+0.89876*#510-0.89876*#515]
#101=[#516+0.89876*#511-0.89876*#516]
#100=[#102+0.85855*#101-0.85855*#102]
G01 X8.9105Y12.7112Z[#100+-0.0800]
#102=[#515+0.89943*#510-0.89943*#515]
#101=[#516+0.89943*#511-0.89943*#516]
#100=[#102+0.85987*#101-0.85987*#102]
G01 X8.9209Y12.7060Z[#100+-0.0800]
#102=[#515+0.89998*#510-0.89998*#515]
#101=[#516+0.89998*#511-0.89998*#516]
#100=[#102+0.86125*#101-0.86125*#102]
G01 X8.9318Y12.7018Z[#100+-0.0800]
#102=[#515+0.90040*#510-0.90040*#515]
#101=[#516+0.90040*#511-0.90040*#516]
#100=[#102+0.86268*#101-0.86268*#102]
G01 X8.9431Y12.6986Z[#100+-0.0800]
#102=[#515+0.90067*#510-0.90067*#515]
#101=[#516+0.90067*#511-0.90067*#516]
#100=[#102+0.86413*#101-0.86413*#102]
G01 X8.9545Y12.6965Z[#100+-0.0800]
#102=[#515+0.90083*#510-0.90083*#515]
#101=[#516+0.90083*#511-0.90083*#516]
#100=[#102+0.86634*#101-0.86634*#102]
G01 X8.9720Y12.6953Z[#100+-0.0800]
#102=[#516+0.90082*#511-0.90082*#516]
#101=[#517+0.90082*#512-0.90082*#517]
#100=[#102+0.50032*#101-0.50032*#102]
G01 X13.97200Y12.69534Z[#100+-0.0800] ;segmented line. Max segment length set to 5
#102=[#517+0.90082*#512-0.90082*#517]
#101=[#518+0.90082*#513-0.90082*#518]
#100=[#102+0.13430*#101-0.13430*#102]
G01 X18.97200Y12.69538Z[#100+-0.0800] ;segmented line. Max segment length set to 5
#102=[#517+0.90081*#512-0.90081*#517]
#101=[#518+0.90081*#513-0.90081*#518]
#100=[#102+0.76828*#101-0.76828*#102]
G01 X23.97200Y12.69542Z[#100+-0.0800] ;segmented line. Max segment length set to 5
#102=[#518+0.90081*#513-0.90081*#518]
#101=[#519+0.90081*#514-0.90081*#519]
#100=[#102+0.40226*#101-0.40226*#102]
G01 X28.97200Y12.69546Z[#100+-0.0800] ;segmented line. Max segment length set to 5
#102=[#518+0.90080*#513-0.90080*#518]
#101=[#519+0.90080*#514-0.90080*#519]
#100=[#102+0.89773*#101-0.89773*#102]
G01 X32.8796Y12.6955Z[#100+-0.0800]
#102=[#518+0.90064*#513-0.90064*#518]
#101=[#519+0.90064*#514-0.90064*#519]
#100=[#102+0.89930*#101-0.89930*#102]
G01 X32.8920Y12.6967Z[#100+-0.0800]
#102=[#518+0.90033*#513-0.90033*#518]
#101=[#519+0.90033*#514-0.90033*#519]
#100=[#102+0.90086*#101-0.90086*#102]
G01 X32.9043Y12.6991Z[#100+-0.0800]
#102=[#518+0.89986*#513-0.89986*#518]
#101=[#519+0.89986*#514-0.89986*#519]
#100=[#102+0.90237*#101-0.90237*#102]
G01 X32.9162Y12.7027Z[#100+-0.0800]
#102=[#518+0.89924*#513-0.89924*#518]
#101=[#519+0.89924*#514-0.89924*#519]
#100=[#102+0.90383*#101-0.90383*#102]
G01 X32.9277Y12.7075Z[#100+-0.0800]
#102=[#518+0.89847*#513-0.89847*#518]
#101=[#519+0.89847*#514-0.89847*#519]
#100=[#102+0.90522*#101-0.90522*#102]
G01 X32.9387Y12.7134Z[#100+-0.0800]
#102=[#518+0.89757*#513-0.89757*#518]
#101=[#519+0.89757*#514-0.89757*#519]
#100=[#102+0.90654*#101-0.90654*#102]
G01 X32.9491Y12.7203Z[#100+-0.0800]
#102=[#518+0.89598*#513-0.89598*#518]
#101=[#519+0.89598*#514-0.89598*#519]
#100=[#102+0.90833*#101-0.90833*#102]
G01 X32.9632Y12.7325Z[#100+-0.0800]
#102=[#518+0.81334*#513-0.81334*#518]
#101=[#519+0.81334*#514-0.81334*#519]
#100=[#102+0.98884*#101-0.98884*#102]
G01 X33.5982Y13.3675Z[#100+-0.0800]
#102=[#518+0.81151*#513-0.81151*#518]
#101=[#519+0.81151*#514-0.81151*#519]
#100=[#102+0.99039*#101-0.99039*#102]
G01 X33.6104Y13.3816Z[#100+-0.0800]
#102=[#518+0.81015*#513-0.81015*#518]
#101=[#519+0.81015*#514-0.81015*#519]
#100=[#102+0.99126*#101-0.99126*#102]
G01 X33.6173Y13.3920Z[#100+-0.0800]
#102=[#518+0.80872*#513-0.80872*#518]
#101=[#519+0.80872*#514-0.80872*#519]
#100=[#102+0.99201*#101-0.99201*#102]
G01 X33.6232Y13.4030Z[#100+-0.0800]
#102=[#518+0.80722*#513-0.80722*#518]
#101=[#519+0.80722*#514-0.80722*#519]
#100=[#102+0.99262*#101-0.99262*#102]
G01 X33.6280Y13.4145Z[#100+-0.0800]
#102=[#518+0.80567*#513-0.80567*#518]
#101=[#519+0.80567*#514-0.80567*#519]
#100=[#102+0.99308*#101-0.99308*#102]
G01 X33.6316Y13.4264Z[#100+-0.0800]
#102=[#518+0.80407*#513-0.80407*#518]
#101=[#519+0.80407*#514-0.80407*#519]
#100=[#102+0.99338*#101-0.99338*#102]
G01 X33.6340Y13.4387Z[#100+-0.0800]
#102=[#518+0.80165*#513-0.80165*#518]
#101=[#519+0.80165*#514-0.80165*#519]
#100=[#102+0.99356*#101-0.99356*#102]
G01 X33.6354Y13.4573Z[#100+-0.0800]
#102=[#518+0.15091*#513-0.15091*#518]
#101=[#519+0.15091*#514-0.15091*#519]
#100=[#102+0.99353*#101-0.99353*#102]
G01 X33.63521Y18.45730Z[#100+-0.0800] ;segmented line. Max segment length set to 5
#102=[#518+0.12315*#513-0.12315*#518]
#101=[#519+0.12315*#514-0.12315*#519]
#100=[#102+0.99353*#101-0.99353*#102]
G01 X33.6352Y18.6706Z[#100+-0.0800]
#102=[#518+0.12151*#513-0.12151*#518]
#101=[#519+0.12151*#514-0.12151*#519]
#100=[#102+0.99338*#101-0.99338*#102]
G01 X33.6340Y18.6832Z[#100+-0.0800]
#102=[#518+0.11989*#513-0.11989*#518]
#101=[#519+0.11989*#514-0.11989*#519]
#100=[#102+0.99306*#101-0.99306*#102]
G01 X33.6315Y18.6956Z[#100+-0.0800]
#102=[#518+0.11832*#513-0.11832*#518]
#101=[#519+0.11832*#514-0.11832*#519]
#100=[#102+0.99260*#101-0.99260*#102]
G01 X33.6278Y18.7077Z[#100+-0.0800]
#102=[#518+0.11681*#513-0.11681*#518]
#101=[#519+0.11681*#514-0.11681*#519]
#100=[#102+0.99197*#101-0.99197*#102]
G01 X33.6229Y18.7193Z[#100+-0.0800]
#102=[#518+0.11536*#513-0.11536*#518]
#101=[#519+0.11536*#514-0.11536*#519]
#100=[#102+0.99120*#101-0.99120*#102]
G01 X33.6168Y18.7304Z[#100+-0.0800]
#102=[#518+0.11400*#513-0.11400*#518]
#101=[#519+0.11400*#514-0.11400*#519]
#100=[#102+0.99030*#101-0.99030*#102]
G01 X33.6097Y18.7409Z[#100+-0.0800]
#102=[#518+0.11274*#513-0.11274*#518]
#101=[#519+0.11274*#514-0.11274*#519]
#100=[#102+0.98927*#101-0.98927*#102]
G01 X33.6016Y18.7506Z[#100+-0.0800]
#102=[#518+0.11159*#513-0.11159*#518]
#101=[#519+0.11159*#514-0.11159*#519]
#100=[#102+0.98813*#101-0.98813*#102]
G01 X33.5926Y18.7594Z[#100+-0.0800]
#102=[#518+0.09735*#513-0.09735*#518]
#101=[#519+0.09735*#514-0.09735*#519]
#100=[#102+0.97080*#101-0.97080*#102]
G01 X33.4559Y18.8688Z[#100+-0.0800]
#102=[#518+0.09648*#513-0.09648*#518]
#101=[#519+0.09648*#514-0.09648*#519]
#100=[#102+0.96949*#101-0.96949*#102]
G01 X33.4456Y18.8755Z[#100+-0.0800]
#102=[#518+0.09575*#513-0.09575*#518]
#101=[#519+0.09575*#514-0.09575*#519]
#100=[#102+0.96812*#101-0.96812*#102]
G01 X33.4348Y18.8811Z[#100+-0.0800]
#102=[#518+0.09515*#513-0.09515*#518]
#101=[#519+0.09515*#514-0.09515*#519]
#100=[#102+0.96668*#101-0.96668*#102]
G01 X33.4234Y18.8857Z[#100+-0.0800]
#102=[#518+0.09470*#513-0.09470*#518]
#101=[#519+0.09470*#514-0.09470*#519]
#100=[#102+0.96519*#101-0.96519*#102]
G01 X33.4117Y18.8892Z[#100+-0.0800]
#102=[#518+0.09438*#513-0.09438*#518]
#101=[#519+0.09438*#514-0.09438*#519]
#100=[#102+0.96367*#101-0.96367*#102]
G01 X33.3997Y18.8916Z[#100+-0.0800]
#102=[#518+0.09421*#513-0.09421*#518]
#101=[#519+0.09421*#514-0.09421*#519]
#100=[#102+0.96135*#101-0.96135*#102]
G01 X33.3814Y18.8929Z[#100+-0.0800]
#102=[#518+0.09421*#513-0.09421*#518]
#101=[#519+0.09421*#514-0.09421*#519]
#100=[#102+0.32737*#101-0.32737*#102]
G01 X28.38140Y18.89290Z[#100+-0.0800] ;segmented line. Max segment length set to 5
#102=[#517+0.09421*#512-0.09421*#517]
#101=[#518+0.09421*#513-0.09421*#518]
#100=[#102+0.69340*#101-0.69340*#102]
G01 X23.38140Y18.89290Z[#100+-0.0800] ;segmented line. Max segment length set to 5
#102=[#517+0.09421*#512-0.09421*#517]
#101=[#518+0.09421*#513-0.09421*#518]
#100=[#102+0.05942*#101-0.05942*#102]
G01 X18.38140Y18.89290Z[#100+-0.0800] ;segmented line. Max segment length set to 5
#102=[#516+0.09421*#511-0.09421*#516]
#101=[#517+0.09421*#512-0.09421*#517]
#100=[#102+0.42544*#101-0.42544*#102]
G01 X13.38140Y18.89290Z[#100+-0.0800] ;segmented line. Max segment length set to 5
#102=[#515+0.09421*#510-0.09421*#515]
#101=[#516+0.09421*#511-0.09421*#516]
#100=[#102+0.79146*#101-0.79146*#102]
G01 X8.38140Y18.89290Z[#100+-0.0800] ;segmented line. Max segment length set to 5
#102=[#515+0.09421*#510-0.09421*#515]
#101=[#516+0.09421*#511-0.09421*#516]
#100=[#102+0.64412*#101-0.64412*#102]
G01 X7.2194Y18.8929Z[#100+-0.0800]
#102=[#515+0.09440*#510-0.09440*#515]
#101=[#516+0.09440*#511-0.09440*#516]
#100=[#102+0.64176*#101-0.64176*#102]
G01 X7.2008Y18.8915Z[#100+-0.0800]
#102=[#515+0.09471*#510-0.09471*#515]
#101=[#516+0.09471*#511-0.09471*#516]
#100=[#102+0.64020*#101-0.64020*#102]
G01 X7.1885Y18.8891Z[#100+-0.0800]
#102=[#515+0.09518*#510-0.09518*#515]
#101=[#516+0.09518*#511-0.09518*#516]
#100=[#102+0.63870*#101-0.63870*#102]
G01 X7.1766Y18.8855Z[#100+-0.0800]
#102=[#515+0.09580*#510-0.09580*#515]
#101=[#516+0.09580*#511-0.09580*#516]
#100=[#102+0.63724*#101-0.63724*#102]
G01 X7.1651Y18.8807Z[#100+-0.0800]
#102=[#515+0.09657*#510-0.09657*#515]
#101=[#516+0.09657*#511-0.09657*#516]
#100=[#102+0.63584*#101-0.63584*#102]
G01 X7.1541Y18.8748Z[#100+-0.0800]
#102=[#515+0.09747*#510-0.09747*#515]
#101=[#516+0.09747*#511-0.09747*#516]
#100=[#102+0.63452*#101-0.63452*#102]
G01 X7.1437Y18.8679Z[#100+-0.0800]
#102=[#515+0.09850*#510-0.09850*#515]
#101=[#516+0.09850*#511-0.09850*#516]
#100=[#102+0.63331*#101-0.63331*#102]
G01 X7.1341Y18.8600Z[#100+-0.0800]
#102=[#515+0.09964*#510-0.09964*#515]
#101=[#516+0.09964*#511-0.09964*#516]
#100=[#102+0.63219*#101-0.63219*#102]
G01 X7.1253Y18.8512Z[#100+-0.0800]
#102=[#515+0.10089*#510-0.10089*#515]
#101=[#516+0.10089*#511-0.10089*#516]
#100=[#102+0.63119*#101-0.63119*#102]
G01 X7.1174Y18.8416Z[#100+-0.0800]
#102=[#515+0.10225*#510-0.10225*#515]
#101=[#516+0.10225*#511-0.10225*#516]
#100=[#102+0.63031*#101-0.63031*#102]
G01 X7.1105Y18.8312Z[#100+-0.0800]
#102=[#515+0.10368*#510-0.10368*#515]
#101=[#516+0.10368*#511-0.10368*#516]
#100=[#102+0.62957*#101-0.62957*#102]
G01 X7.1046Y18.8202Z[#100+-0.0800]
#102=[#515+0.10517*#510-0.10517*#515]
#101=[#516+0.10517*#511-0.10517*#516]
#100=[#102+0.62896*#101-0.62896*#102]
G01 X7.0998Y18.8087Z[#100+-0.0800]
#102=[#515+0.10672*#510-0.10672*#515]
#101=[#516+0.10672*#511-0.10672*#516]
#100=[#102+0.62850*#101-0.62850*#102]
G01 X7.0962Y18.7968Z[#100+-0.0800]
#102=[#515+0.10832*#510-0.10832*#515]
#101=[#516+0.10832*#511-0.10832*#516]
#100=[#102+0.62820*#101-0.62820*#102]
G01 X7.0938Y18.7845Z[#100+-0.0800]
#102=[#515+0.10994*#510-0.10994*#515]
#101=[#516+0.10994*#511-0.10994*#516]
#100=[#102+0.62804*#101-0.62804*#102]
G01 X7.0926Y18.7721Z[#100+-0.0800]
G00 Z1.0000
G00 Z1.0000
G00 X0Y0
M05
